!!!!SEGMENT: pl-cz--iii-667--001-005_scigalski-franciszek--litania-regina-angelorum.krn
!!!cenid: 18xx:1082
!!!COM: Ścigalski, Franciszek
!!!COM-rismid: pe30002948
!!!CDT: 1782/01/29-1846/09/27
!!!CNT: Polish
!!!OPR: Litania
!!!OTL: Regina angelorum
!!!OMV: 005
!!!PDT:
!!!AGN: Sacred; Mass
!!!SMS-siglum: PL-CZ
!!!SMS-shelfmark: III-667
!!!SMS-shelfwork: 001-005 M
!!!SMS-variant:
!!!SMS-altvar:
!!!NIFC-rismid: 300001311
!!!URL-scan: http://repozytorium.nifc.pl/skany/pl-cz-nut--iii-667
!!!ONB-nifc: UWAGA: części Litanii: Kyrie, Sancta Maria, Vas spirituale, Domus aurea, Regina angelorum, Agnus Dei
!!!AIN: 2 alto 1 bass 2 clars 2 cor 1 organ 2 soprn 1 tenor 1 tromp 2 violn
!!!key:
**kern	**fba	**dynam	**kern	**dynam	**kern	**dynam	**kern	**text	**dynam	**kern	**text	**dynam	**kern	**text	**dynam	**kern	**text	**dynam	**kern	**text	**dynam	**kern	**text	**dynam	**kern	**dynam	**kern	**dynam	**kern	**dynam	**kern	**dynam	**kern	**dynam
*	*	*	*group5	*	*group5	*	*group4	*	*	*group4	*	*	*group4	*	*	*group4	*	*	*group3	*	*	*group3	*	*	*group2	*	*group2	*	*group2	*	*group1	*	*group1	*
*part14	*part14	*part14	*part13	*part13	*part12	*part12	*part11	*part11	*part11	*part10	*part10	*	*part9	*part9	*	*part8	*part8	*	*part7	*part7	*part7	*part6	*part6	*	*part5	*	*part4	*	*part3	*	*part2	*part2	*part1	*part1
*staff14	*	*	*staff13	*	*staff12	*	*staff11	*staff11	*	*staff10	*staff10	*	*staff9	*staff9	*	*staff8	*staff8	*	*staff7	*staff7	*	*staff6	*staff6	*	*staff5	*	*staff4	*	*staff3	*	*staff2	*	*staff1	*
*I"Organo.	*	*	*I"Violino 2do	*	*I"Violino Imo	*	*I"Basſso. Basſo	*	*	*I"Tenore. Tenore.	*	*	*I"Alto. Coro Alto .	*	*	*I"Canto Coro Canto.	*	*	*I"Alto alto.	*	*	*I"Canto	*	*	*I"Duo Clarini in C.	*	*I"Corno 2do in F.	*	*I"Corno Imo in F.	*	*I"Clarinetto 2do in B.	*	*I"Clarinetto Imo in B.	*
*I'org	*	*	*I'vl 2	*	*I'vl 1	*	*I'Coro B	*	*	*I'Coro T	*	*	*I'Coro A	*	*	*I'Coro S	*	*	*I'A	*	*	*I'S	*	*	*I'clno 1 & 2 in C	*	*I'cor 2 in F	*	*I'cor 1 in F	*	*I'cl 2 in B|b	*	*I'cl 1 in B|b	*
*Iorgan	*	*	*Ivioln	*	*Ivioln	*	*Ibass	*	*	*Itenor	*	*	*Ialto	*	*	*Isoprn	*	*	*Ialto	*	*	*Isoprn	*	*	*Itromp	*	*Icor	*	*Icor	*	*Iclars	*	*Iclars	*
*ICklav	*	*	*ICstr	*	*ICstr	*	*ICvox	*	*	*ICvox	*	*	*ICvox	*	*	*ICvox	*	*	*ICvox	*	*	*ICvox	*	*	*ICbras	*	*ICbras	*	*ICbras	*	*ICww	*	*ICww	*
*IGcont	*	*	*	*	*	*	*IGcoro	*	*	*IGcoro	*	*	*IGcoro	*	*	*IGcoro	*	*	*IGsolo	*	*	*IGsolo	*	*	*	*	*	*	*	*	*	*	*	*
*clefF4	*	*	*clefG2	*	*clefG2	*	*clefF4	*	*	*clefC4	*	*	*clefC3	*	*	*clefC1	*	*	*clefC3	*	*	*clefC1	*	*	*clefG2	*	*clefG2	*	*clefG2	*	*clefG2	*	*clefG2	*
*	*	*	*	*	*	*	*	*	*	*	*	*	*	*	*	*	*	*	*	*	*	*	*	*	*	*	*ITrd4c7	*	*ITrd4c7	*	*ITrd1c2	*	*ITrd1c2	*
*k[b-]	*	*	*k[b-]	*	*k[b-]	*	*k[b-]	*	*	*k[b-]	*	*	*k[b-]	*	*	*k[b-]	*	*	*k[b-]	*	*	*k[b-]	*	*	*k[]	*	*k[b-]	*	*k[b-]	*	*k[b-]	*	*k[b-]	*
*F:	*	*	*F:	*	*F:	*	*F:	*	*	*F:	*	*	*F:	*	*	*F:	*	*	*F:	*	*	*F:	*	*	*	*	*	*	*	*	*F:	*	*F:	*
*M3/4	*	*	*M3/4	*	*M3/4	*	*M3/4	*	*	*M3/4	*	*	*M3/4	*	*	*M3/4	*	*	*M3/4	*	*	*M3/4	*	*	*M3/4	*	*M3/4	*	*M3/4	*	*M3/4	*	*M3/4	*
=1	=1	=1	=1	=1	=1	=1	=1	=1	=1	=1	=1	=1	=1	=1	=1	=1	=1	=1	=1	=1	=1	=1	=1	=1	=1	=1	=1	=1	=1	=1	=1	=1	=1	=1
!LO:TX:a:i:t=Allegro moderato \nquasi Allegretto	!	!	!	!	!	!	!	!	!	!	!	!	!	!	!	!	!	!	!	!	!	!	!	!	!	!	!	!	!	!	!	!	!	!
!LO:TX:a:i:t=Sempre stacatto et marcato	!	!	!	!	!	!	!	!	!	!	!	!	!	!	!	!	!	!	!	!	!	!	!	!	!	!	!	!	!	!	!LO:TX:t=P:problem=pauzy 0r 1r, więc faktycznie 3 takty	!	!	!
!	!	!	!LO:TX:a:i:t=Regina	!	!LO:TX:a:i:t=Regina	!	!LO:TX:a:i:t=Sotto voce	!	!	!	!	!	!LO:TX:a:i:t=Sotto voce	!	!	!LO:TX:a:i:t=Regina	!	!	!LO:TX:a:i:t=Sotto voce	!	!	!	!	!	!LO:TX:a:t=64.	!	!LO:TX:a:t=3	!	!LO:TX:a:t=3	!	!LO:TX:a:t=5.	!	!LO:TX:a:t=3.	!
!LO:TX:b:i:t=uniſono	!	!	!LO:TX:a:i:t=Sempre Stacatto et Marcato	!	!LO:TX:a:i:t=Sempre Stacatto et Marcato	!	!LO:TX:a:i:t=Regina	!	!	!LO:TX:a:i:t=Regina	!	!	!LO:TX:a:i:t=Regina	!	!	!LO:TX:a:i:t=Allegro moderato \nquasi Allegretto	!	!	!LO:TX:a:i:t=Regina	!	!	!LO:TX:a:i:t=Regina	!	!	!LO:TX:a:i:t=Allegro moderato \nquasi allegretto	!	!LO:TX:a:i:t=allegro moderato \nquasi allegretto	!	!LO:TX:a:i:t=[alleg]ro moderato \n[quasi] allegretto	!	!LO:TX:a:i:t=allegro moderato \nquasi allegretto	!	!LO:TX:a:i:t=allegro moderato \nquasi allegretto	!
!LO:TX:a:i:t=Regina	!	!	!LO:TX:a:i:t=Allegro moderato quasi Allegretto	!	!LO:TX:a:i:t=Allegro moderato\nquasi Allegretto	!	!LO:TX:a:i:t=Allegro moderato quasi Allegretto	!	!	!LO:TX:a:i:t=Allegro moderato \nquasi Allegretto	!	!	!LO:TX:a:i:t=Allegro moderato \nquasi Allegretto	!	!	!LO:TX:a:i:t=Sotto voce	!	!	!LO:TX:a:i:t=Allegro moderato \nquasi Allegretto	!	!	!LO:TX:a:i:t=Allegro moderato\nquasi Allegretto	!	!	!LO:TX:a:i:t=Regina	!	!LO:TX:a:i:t=Regina	!	!LO:TX:a:i:t=[Reg]ina	!	!LO:TX:a:i:t=Regina	!	!LO:TX:a:i:t=Regina	!
*	*	*	*	*	*	*below	*	*	*	*	*	*	*	*	*	*	*	*	*	*	*	*	*	*	*	*	*	*	*	*	*	*	*	*
!	!	!LO:DY:rj	!	!LO:DY:rj	!	!	!	!	!	!	!	!	!	!	!	!	!	!	!	!	!	!	!	!	!	!	!	!	!	!	!	!	!	!
8F\L|	.	p	8f/L|	p	8f'/L	p	4r	.	.	4r	.	.	4r	.	.	4r	.	.	4r	.	.	4r	.	.	2.r	.	1.r	.	1.r	.	1.r	.	1.r	.
8E\|	.	.	8e/|	.	8e'/	.	.	.	.	.	.	.	.	.	.	.	.	.	.	.	.	.	.	.	.	.	.	.	.	.	.	.	.	.
*	*	*	*	*	*	*	*	*	*	*	*	*	*	*	*	*	*	*	*	*	*below	*	*	*	*	*	*	*	*	*	*	*	*	*
8F\|	.	.	8f/|	.	8f'/	.	4r	.	f	4r	.	f	4r	.	.	4r	.	.	4r	.	f	4r	.	.	.	.	.	.	.	.	.	.	.	.
8G\|	.	.	8g/|	.	8g'/	.	.	.	.	.	.	.	.	.	.	.	.	.	.	.	.	.	.	.	.	.	.	.	.	.	.	.	.	.
!	!	!	!	!	!	!	!	!	!	!LO:TX:a:i:t=Sotto voce	!	!	!	!	!	!	!	!	!	!	!	!LO:TX:a:i:t=Sotto voce	!	!	!	!	!	!	!	!	!	!	!	!
8A\|	.	.	8a/|	.	8a'/	.	4A\	Re-	.	4A\	Re-	.	4a\	Re-	.	4a\	Re-	.	4a\	Re-	.	4a\	Re-	.	.	.	.	.	.	.	.	.	.	.
8G\J|	.	.	8g/J|	.	8g'/J	.	.	.	.	.	.	.	.	.	.	.	.	.	.	.	.	.	.	.	.	.	.	.	.	.	.	.	.	.
=2	=2	=2	=2	=2	=2	=2	=2	=2	=2	=2	=2	=2	=2	=2	=2	=2	=2	=2	=2	=2	=2	=2	=2	=2	=2	=2	=2	=2	=2	=2	=2	=2	=2	=2
*	*	*	*	*	*	*	*2\right	*	*	*2\right	*	*	*2\right	*	*	*2\right	*	*	*2\right	*	*	*2\right	*	*	*	*	*	*	*	*	*	*	*	*
8F\L|	.	.	8f'/L	.	8f'/L	.	2A\	-gi-	.	2A\	-gi-	.	2a\	-gi-	.	2a\	-gi-	.	2a\	-gi-	.	2a\	-gi-	.	2.r	.	.	.	.	.	.	.	.	.
8E\|	.	.	8e'/	.	8e'/	.	.	.	.	.	.	.	.	.	.	.	.	.	.	.	.	.	.	.	.	.	.	.	.	.	.	.	.	.
8F\|	.	.	8f'/	.	8f'/	.	.	.	.	.	.	.	.	.	.	.	.	.	.	.	.	.	.	.	.	.	.	.	.	.	.	.	.	.
8G\|	.	.	8g'/	.	8g'/	.	.	.	.	.	.	.	.	.	.	.	.	.	.	.	.	.	.	.	.	.	.	.	.	.	.	.	.	.
8A\|	.	.	8a'/	.	8a'/	.	4A\	-na	.	4A\	-na	.	4a\	-na	.	4a\	-na	.	4a\	-na	.	4a\	-na	.	.	.	.	.	.	.	.	.	.	.
8F\J|	.	.	8f'/J	.	8f'/J	.	.	.	.	.	.	.	.	.	.	.	.	.	.	.	.	.	.	.	.	.	.	.	.	.	.	.	.	.
=3	=3	=3	=3	=3	=3	=3	=3	=3	=3	=3	=3	=3	=3	=3	=3	=3	=3	=3	=3	=3	=3	=3	=3	=3	=3	=3	=3	=3	=3	=3	=3	=3	=3	=3
8E\L|	.	.	8e'/L	.	8e'/L	.	2c\	An-	.	2c\	An-	.	2cc\	An-	.	2cc\	An-	.	2cc\	An-	.	2cc\	An-	.	2.r	.	2.r	.	2.r	.	2.r	.	2.r	.
8D\|	.	.	8d'/	.	8d'/	.	.	.	.	.	.	.	.	.	.	.	.	.	.	.	.	.	.	.	.	.	.	.	.	.	.	.	.	.
8E\|	.	.	8e'/	.	8e'/	.	.	.	.	.	.	.	.	.	.	.	.	.	.	.	.	.	.	.	.	.	.	.	.	.	.	.	.	.
8C\|	.	.	8c'/	.	8c'/	.	.	.	.	.	.	.	.	.	.	.	.	.	.	.	.	.	.	.	.	.	.	.	.	.	.	.	.	.
8D\|	.	.	8d'/	.	8d'/	.	4c\	-ge-	.	4c\	-ge-	.	4cc\	-ge-	.	4cc\	-ge-	.	4cc\	-ge-	.	4cc\	-ge-	.	.	.	.	.	.	.	.	.	.	.
8E\J|	.	.	8e'/J	.	8e'/J	.	.	.	.	.	.	.	.	.	.	.	.	.	.	.	.	.	.	.	.	.	.	.	.	.	.	.	.	.
=4	=4	=4	=4	=4	=4	=4	=4	=4	=4	=4	=4	=4	=4	=4	=4	=4	=4	=4	=4	=4	=4	=4	=4	=4	=4	=4	=4	=4	=4	=4	=4	=4	=4	=4
8F\L|	.	.	8f'/L	.	8f'/L	.	4A\	-lo-	.	4A/	-lo-	.	4a\	-lo-	.	4a\	-lo-	.	4a\	-lo-	.	4a\	-lo-	.	2.r	.	4r	.	4r	.	4r	.	4r	.
8E\|	.	.	8e'/	.	8e'/	.	.	.	.	.	.	.	.	.	.	.	.	.	.	.	.	.	.	.	.	.	.	.	.	.	.	.	.	.
!	!	!	!	!	!	!	!	!	!	!	!	!	!	!	!	!	!	!	!	!	!	!	!	!	!	!	!	!	!	!LO:DY:t=p	!	!	!	!LO:DY:t=p
8F\|	.	.	8f'/	.	8f'/	.	4F\	-rum	.	4F/	-rum	.	4f\	-rum	.	4f/	-rum	.	4f\	-rum	.	4f\	-rum	.	.	.	4r	p	4r	p	4r	.	4r	p
8G\|	.	.	8g'/	.	8g'/	.	.	.	.	.	.	.	.	.	.	.	.	.	.	.	.	.	.	.	.	.	.	.	.	.	.	.	.	.
!	!	!	!	!	!	!	!	!	!	!	!	!	!LO:TX:a:t=Solo	!	!	!LO:TX:a:t=Solo	!	!	!	!	!	!	!	!	!	!	!	!	!	!	!	!LO:DY:rj:t=p	!	!
8A\|	.	.	8a'/	.	8a'/	.	4r	.	.	4r	.	.	4a\	o-	.	4a\	o-	.	4r	.	.	4r	.	.	.	.	4A/	.	4A/	.	4a\	p	4a\	.
8F\J|	.	.	8f'/J	.	8f'/J	.	.	.	.	.	.	.	.	.	.	.	.	.	.	.	.	.	.	.	.	.	.	.	.	.	.	.	.	.
!LO:LB:g=original	!	!	!	!	!LO:LB:g=original	!	!	!	!	!	!	!	!	!	!	!	!	!	!	!	!	!	!	!	!	!	!	!	!	!	!	!	!	!
=5	=5	=5	=5	=5	=5	=5	=5	=5	=5	=5	=5	=5	=5	=5	=5	=5	=5	=5	=5	=5	=5	=5	=5	=5	=5	=5	=5	=5	=5	=5	=5	=5	=5	=5
*	*	*	*	*	*	*	*	*	*	*	*	*	*	*	*	*	*	*	*	*	*	*	*	*	*	*	*	*	*	*	*2\right	*	*2\right	*
!	!	!	!	!	!	!	!LO:TX:a:t=1	!	!	!LO:TX:a:t=1.	!	!	!	!	!	!	!	!	!LO:TX:a:t=1	!	!	!LO:TX:a:t=1	!	!	!	!	!	!	!	!	!	!	!	!
8E\L|	.	.	8e'/L	.	8e'/L	.	2.r	.	.	2.r	.	.	2cc\	-ra	.	2cc\	-ra	.	2.r	.	.	2.r	.	.	2.r	.	2c/	.	2c/	.	2cc\	.	2cc\	.
8D\|	.	.	8d'/	.	8d'/	.	.	.	.	.	.	.	.	.	.	.	.	.	.	.	.	.	.	.	.	.	.	.	.	.	.	.	.	.
8E\|	.	.	8e'/	.	8e'/	.	.	.	.	.	.	.	.	.	.	.	.	.	.	.	.	.	.	.	.	.	.	.	.	.	.	.	.	.
8C\|	.	.	8c'/	.	8c'/	.	.	.	.	.	.	.	.	.	.	.	.	.	.	.	.	.	.	.	.	.	.	.	.	.	.	.	.	.
8D\|	.	.	8d'/	.	8d'/	.	.	.	.	.	.	.	4cc\	pro	.	4cc\	pro	.	.	.	.	.	.	.	.	.	4c/	.	4c/	.	4cc\	.	4cc\	.
8E\J|	.	.	8e'/J	.	8e'/J	.	.	.	.	.	.	.	.	.	.	.	.	.	.	.	.	.	.	.	.	.	.	.	.	.	.	.	.	.
!	!	!	!LO:LB:g=original	!	!	!	!	!	!	!	!	!	!	!	!	!	!	!	!	!	!	!	!	!	!	!	!	!	!	!	!	!	!	!
=6	=6	=6	=6	=6	=6	=6	=6	=6	=6	=6	=6	=6	=6	=6	=6	=6	=6	=6	=6	=6	=6	=6	=6	=6	=6	=6	=6	=6	=6	=6	=6	=6	=6	=6
8F\L|	.	.	8f'/L	.	8f'/L	.	4r	.	.	4r	.	.	4a\	no-	.	4a\	no-	.	4r	.	.	4r	.	.	2.r	.	4A/	.	4A/	.	4a\	.	4a\	.
8E\|	.	.	8e'/	.	8e'/	.	.	.	.	.	.	.	.	.	.	.	.	.	.	.	.	.	.	.	.	.	.	.	.	.	.	.	.	.
8F\|	.	.	8f'/	.	8f'/	.	4r	.	.	4r	.	.	4f\	-bis	.	4f/	-bis	.	4r	.	.	4r	.	.	.	.	4F/	.	4F/	.	4f/	.	4f/	.
8G\|	.	.	8g'/	.	8g'/	.	.	.	.	.	.	.	.	.	.	.	.	.	.	.	.	.	.	.	.	.	.	.	.	.	.	.	.	.
8A\|	.	.	8a'/	.	8a'/	.	4A\	o-	.	4A\	o-	.	4r	.	.	4r	.	.	4a\	o-	.	4a\	o-	.	.	.	4r	.	4r	.	4r	.	4r	.
8F\J|	.	.	8f'/J	.	8f'/J	.	.	.	.	.	.	.	.	.	.	.	.	.	.	.	.	.	.	.	.	.	.	.	.	.	.	.	.	.
!	!	!	!	!	!	!	!	!	!	!LO:LB:g=original	!	!	!LO:LB:g=original	!	!	!	!	!	!	!	!	!	!	!	!	!	!	!	!	!	!	!	!	!
=7	=7	=7	=7	=7	=7	=7	=7	=7	=7	=7	=7	=7	=7	=7	=7	=7	=7	=7	=7	=7	=7	=7	=7	=7	=7	=7	=7	=7	=7	=7	=7	=7	=7	=7
!	!	!	!	!	!	!	!	!	!	!	!	!	!LO:TX:a:t=2.	!	!	!LO:TX:a:t=2	!	!	!	!	!	!	!	!	!	!	!LO:TX:a:t=5.	!	!LO:TX:a:t=5.	!	!LO:TX:a:t=5	!	!LO:TX:a:t=5.	!
8E\L|	.	.	8e'/L	.	8e'/L	.	2c\	-ra	.	2c\	-ra	.	1.r	.	.	1.r	.	.	2cc\	-ra	.	2cc\	-ra	.	2.r	.	0.r	.	0.r	.	0.r	.	0.r	.
8D\|	.	.	8d'/	.	8d'/	.	.	.	.	.	.	.	.	.	.	.	.	.	.	.	.	.	.	.	.	.	.	.	.	.	.	.	.	.
8E\|	.	.	8e'/	.	8e'/	.	.	.	.	.	.	.	.	.	.	.	.	.	.	.	.	.	.	.	.	.	.	.	.	.	.	.	.	.
8C\|	.	.	8c'/	.	8c'/	.	.	.	.	.	.	.	.	.	.	.	.	.	.	.	.	.	.	.	.	.	.	.	.	.	.	.	.	.
8D\|	.	.	8d'/	.	8d'/	.	4c\	pro	.	4c\	pro	.	.	.	.	.	.	.	4cc\	pro	.	4cc\	pro	.	.	.	.	.	.	.	.	.	.	.
8E\J|	.	.	8e'/J	.	8e'/J	.	.	.	.	.	.	.	.	.	.	.	.	.	.	.	.	.	.	.	.	.	.	.	.	.	.	.	.	.
!	!	!	!	!	!	!	!LO:LB:g=original	!	!	!	!	!	!	!	!	!	!	!	!	!	!	!LO:LB:g=original	!	!	!	!	!	!	!	!	!	!	!	!
=8	=8	=8	=8	=8	=8	=8	=8	=8	=8	=8	=8	=8	=8	=8	=8	=8	=8	=8	=8	=8	=8	=8	=8	=8	=8	=8	=8	=8	=8	=8	=8	=8	=8	=8
8F\L|	.	.	8f'/L	.	8f'/L	.	4A\	no-	.	4A\	no-	.	.	.	.	.	.	.	4a\	no-	.	4a\	no-	.	2.r	.	.	.	.	.	.	.	.	.
8C\|	.	.	8c'/	.	8c'/	.	.	.	.	.	.	.	.	.	.	.	.	.	.	.	.	.	.	.	.	.	.	.	.	.	.	.	.	.
8F\|	.	.	8f'/	.	8f'/	.	4F\	-bis	.	4F/	-bis	.	.	.	.	.	.	.	4f\	-bis	.	4f/	-bis	.	.	.	.	.	.	.	.	.	.	.
8E\|	.	.	8e'/	.	8e'/	.	.	.	.	.	.	.	.	.	.	.	.	.	.	.	.	.	.	.	.	.	.	.	.	.	.	.	.	.
8D\|	.	.	8d'/	.	8d'/	.	4r	.	.	4r	.	.	.	.	.	.	.	.	4r	.	.	4r	.	.	.	.	.	.	.	.	.	.	.	.
8C#X\J|	.	.	8c#X'/J	.	8c#X'/J	.	.	.	.	.	.	.	.	.	.	.	.	.	.	.	.	.	.	.	.	.	.	.	.	.	.	.	.	.
!	!	!	!	!	!	!	!	!	!	!	!	!	!	!	!	!LO:LB:g=original	!	!	!LO:LB:g=original	!	!	!	!	!	!	!	!	!	!	!	!	!	!	!
=9	=9	=9	=9	=9	=9	=9	=9	=9	=9	=9	=9	=9	=9	=9	=9	=9	=9	=9	=9	=9	=9	=9	=9	=9	=9	=9	=9	=9	=9	=9	=9	=9	=9	=9
8D\L	.	.	8d'/L	.	8d'/L	.	4r	.	.	4r	.	.	4r	.	.	4r	.	.	4r	.	.	4r	.	.	2.r	.	.	.	.	.	.	.	.	.
8C#X\	.	.	8c#X'/	.	8c#X'/	.	.	.	.	.	.	.	.	.	.	.	.	.	.	.	.	.	.	.	.	.	.	.	.	.	.	.	.	.
8D\	.	.	8d'/	.	8d'/	.	4r	.	.	4r	.	.	4r	.	.	4r	.	.	4r	.	.	4r	.	.	.	.	.	.	.	.	.	.	.	.
8E\	.	.	8e'/	.	8e'/	.	.	.	.	.	.	.	.	.	.	.	.	.	.	.	.	.	.	.	.	.	.	.	.	.	.	.	.	.
8F\	.	.	8f'/	.	8f'/	.	4F\	Re-	.	4F/	Re-	.	4f\	Re-	.	4f/	Re-	.	4f\	Re-	.	4f/	Re-	.	.	.	.	.	.	.	.	.	.	.
8E\J	.	.	8e'/J	.	8e'/J	.	.	.	.	.	.	.	.	.	.	.	.	.	.	.	.	.	.	.	.	.	.	.	.	.	.	.	.	.
=10	=10	=10	=10	=10	=10	=10	=10	=10	=10	=10	=10	=10	=10	=10	=10	=10	=10	=10	=10	=10	=10	=10	=10	=10	=10	=10	=10	=10	=10	=10	=10	=10	=10	=10
8D\L|	.	.	8d'/L	.	8d'/L	.	2F\	-gi-	.	2F/	-gi-	.	2f\	-gi-	.	2f/	-gi-	.	2f\	-gi-	.	2f/	-gi-	.	2.r	.	.	.	.	.	.	.	.	.
8C#X\|	.	.	8c#X'/	.	8c#X'/	.	.	.	.	.	.	.	.	.	.	.	.	.	.	.	.	.	.	.	.	.	.	.	.	.	.	.	.	.
8D\|	.	.	8d'/	.	8d'/	.	.	.	.	.	.	.	.	.	.	.	.	.	.	.	.	.	.	.	.	.	.	.	.	.	.	.	.	.
8E\|	.	.	8e'/	.	8e'/	.	.	.	.	.	.	.	.	.	.	.	.	.	.	.	.	.	.	.	.	.	.	.	.	.	.	.	.	.
8F\|	.	.	8f'/	.	8f'/	.	4F\	-na	.	4F/	-na	.	4f\	-na	.	4f/	-na	.	4f\	-na	.	4f/	-na	.	.	.	.	.	.	.	.	.	.	.
8D\J|	.	.	8d'/J	.	8d'/J	.	.	.	.	.	.	.	.	.	.	.	.	.	.	.	.	.	.	.	.	.	.	.	.	.	.	.	.	.
!LO:LB:g=original	!	!	!	!	!LO:LB:g=original	!	!	!	!	!	!	!	!	!	!	!	!	!	!	!	!	!	!	!	!	!	!	!	!	!	!	!	!	!
=11	=11	=11	=11	=11	=11	=11	=11	=11	=11	=11	=11	=11	=11	=11	=11	=11	=11	=11	=11	=11	=11	=11	=11	=11	=11	=11	=11	=11	=11	=11	=11	=11	=11	=11
8C#X/L|	.	.	8c#X'/L	.	8c#X'/L	.	2A\	Pro-	.	2A\	Pro-	.	2a\	Pro-	.	2a\	Pro-	.	2a\	Pro-	.	2a\	Pro-	.	2.r	.	2.r	.	2.r	.	2.r	.	2.r	.
8BBn/|	.	.	8Bn'/	.	8Bn'/	.	.	.	.	.	.	.	.	.	.	.	.	.	.	.	.	.	.	.	.	.	.	.	.	.	.	.	.	.
8C#/|	.	.	8c#'/	.	8c#'/	.	.	.	.	.	.	.	.	.	.	.	.	.	.	.	.	.	.	.	.	.	.	.	.	.	.	.	.	.
8AA/|	.	.	8A'/	.	8A'/	.	.	.	.	.	.	.	.	.	.	.	.	.	.	.	.	.	.	.	.	.	.	.	.	.	.	.	.	.
8BB/|	.	.	8B'/	.	8B'/	.	4A\	-phe-	.	4A\	-phe-	.	4a\	-phe-	.	4a\	-phe-	.	4a\	-phe-	.	4a\	-phe-	.	.	.	.	.	.	.	.	.	.	.
8C#/J|	.	.	8c#'/J	.	8c#'/J	.	.	.	.	.	.	.	.	.	.	.	.	.	.	.	.	.	.	.	.	.	.	.	.	.	.	.	.	.
=12	=12	=12	=12	=12	=12	=12	=12	=12	=12	=12	=12	=12	=12	=12	=12	=12	=12	=12	=12	=12	=12	=12	=12	=12	=12	=12	=12	=12	=12	=12	=12	=12	=12	=12
8D/L|	.	.	8d'/L	.	8d'/L	.	4F\	-ta-	.	4F/	-ta-	.	4f\	-ta-	.	4f/	-ta-	.	4f\	-ta-	.	4f/	-ta-	.	2.r	.	4r	.	4r	.	4r	.	4r	.
8C#X/|	.	.	8c#X'/	.	8c#X'/	.	.	.	.	.	.	.	.	.	.	.	.	.	.	.	.	.	.	.	.	.	.	.	.	.	.	.	.	.
8D/|	.	.	8d'/	.	8d'/	.	4D\	-rum	.	4D/	-rum	.	4d\	-rum	.	4d/	-rum	.	4d\	-rum	.	4d/	-rum	.	.	.	4r	p	4r	.	4r	.	4r	.
8E/|	.	.	8e'/	.	8e'/	.	.	.	.	.	.	.	.	.	.	.	.	.	.	.	.	.	.	.	.	.	.	.	.	.	.	.	.	.
!	!	!	!	!	!	!	!	!	!	!	!	!	!LO:TX:a:t=Solo	!	!	!LO:TX:a:i:t=Solo	!	!	!	!	!	!	!	!	!	!	!	!	!	!	!	!	!	!
8F/|	.	.	8f'/	.	8f'/	.	4r	.	.	4r	.	.	4f\	o-	.	4f/	o-	.	4r	.	.	4r	.	.	.	.	4F/	.	4F/	.	4f/	.	4ff\	.
8D/J|	.	.	8d'/J	.	8d'/J	.	.	.	.	.	.	.	.	.	.	.	.	.	.	.	.	.	.	.	.	.	.	.	.	.	.	.	.	.
!	!	!	!LO:LB:g=original	!	!	!	!	!	!	!	!	!	!	!	!	!	!	!	!	!	!	!	!	!	!	!	!	!	!	!	!	!	!	!
=13	=13	=13	=13	=13	=13	=13	=13	=13	=13	=13	=13	=13	=13	=13	=13	=13	=13	=13	=13	=13	=13	=13	=13	=13	=13	=13	=13	=13	=13	=13	=13	=13	=13	=13
!	!	!	!	!	!	!	!LO:TX:a:t=1.	!	!	!LO:TX:a:t=1	!	!	!	!	!	!	!	!	!LO:TX:a:t=1.	!	!	!LO:TX:a:t=1	!	!	!	!	!	!	!	!	!	!	!	!
8C#X/L	.	.	8c#X'/L	.	8c#X'/L	.	2.r	.	.	2.r	.	.	2a\	-ra	.	2a\	-ra	.	2.r	.	.	2.r	.	.	2.r	.	2A/	.	2A/	.	2a/	.	2aa\	.
8BBn/	.	.	8Bn'/	.	8Bn'/	.	.	.	.	.	.	.	.	.	.	.	.	.	.	.	.	.	.	.	.	.	.	.	.	.	.	.	.	.
8C#/	.	.	8c#'/	.	8c#'/	.	.	.	.	.	.	.	.	.	.	.	.	.	.	.	.	.	.	.	.	.	.	.	.	.	.	.	.	.
8AA/	.	.	8A'/	.	8A'/	.	.	.	.	.	.	.	.	.	.	.	.	.	.	.	.	.	.	.	.	.	.	.	.	.	.	.	.	.
8BB/	.	.	8B'/	.	8B'/	.	.	.	.	.	.	.	4a\	pro	.	4a\	pro	.	.	.	.	.	.	.	.	.	4A/	.	4A/	.	4a/	.	4aa\	.
8C#/J	.	.	8c#'/J	.	8c#'/J	.	.	.	.	.	.	.	.	.	.	.	.	.	.	.	.	.	.	.	.	.	.	.	.	.	.	.	.	.
=14	=14	=14	=14	=14	=14	=14	=14	=14	=14	=14	=14	=14	=14	=14	=14	=14	=14	=14	=14	=14	=14	=14	=14	=14	=14	=14	=14	=14	=14	=14	=14	=14	=14	=14
8D/L|	.	.	8d'/L	.	8d'/L	.	4r	.	.	4r	.	.	4f\	no-	.	4f/	no-	.	4r	.	.	4r	.	.	2.r	.	4F/	.	4F/	.	4f/	.	4ff\	.
8C#X/|	.	.	8c#X'/	.	8c#X'/	.	.	.	.	.	.	.	.	.	.	.	.	.	.	.	.	.	.	.	.	.	.	.	.	.	.	.	.	.
8D/|	.	.	8d'/	.	8d'/	.	4r	.	.	4r	.	.	4d\	-bis	.	4d/	-bis	.	4r	.	.	4r	.	.	.	.	4D/	.	4D/	.	4d/	.	4dd\	.
8E/|	.	.	8e'/	.	8e'/	.	.	.	.	.	.	.	.	.	.	.	.	.	.	.	.	.	.	.	.	.	.	.	.	.	.	.	.	.
8F/|	.	.	8f'/	.	8f'/	.	4F\	o-	.	4F/	o-	.	4r	.	.	4r	.	.	4f\	o-	.	4f/	o-	.	.	.	4r	.	4r	.	4r	.	4r	.
8D/J|	.	.	8d'/J	.	8d'/J	.	.	.	.	.	.	.	.	.	.	.	.	.	.	.	.	.	.	.	.	.	.	.	.	.	.	.	.	.
=15	=15	=15	=15	=15	=15	=15	=15	=15	=15	=15	=15	=15	=15	=15	=15	=15	=15	=15	=15	=15	=15	=15	=15	=15	=15	=15	=15	=15	=15	=15	=15	=15	=15	=15
!	!	!	!	!	!	!	!	!	!	!	!	!	!LO:TX:a:t=2.	!	!	!LO:TX:a:t=2.	!	!	!	!	!	!	!	!	!	!	!LO:TX:a:t=6.	!	!LO:TX:a:t=6.	!	!LO:TX:a:t=5	!	!LO:TX:a:t=5.	!
8C#X/L|	.	.	8c#X'/L	.	8c#X'/L	.	2A\	-ra	.	2A\	-ra	.	1.r	.	.	1.r	.	.	2a\	-ra	.	2a\	-ra	.	2.r	.	0.r	.	0.r	.	0.r	.	0.r	.
8BBn/|	.	.	8Bn'/	.	8Bn'/	.	.	.	.	.	.	.	.	.	.	.	.	.	.	.	.	.	.	.	.	.	.	.	.	.	.	.	.	.
8C#/|	.	.	8c#'/	.	8c#'/	.	.	.	.	.	.	.	.	.	.	.	.	.	.	.	.	.	.	.	.	.	.	.	.	.	.	.	.	.
8AA/|	.	.	8A'/	.	8A'/	.	.	.	.	.	.	.	.	.	.	.	.	.	.	.	.	.	.	.	.	.	.	.	.	.	.	.	.	.
8BB/|	.	.	8B'/	.	8B'/	.	4A\	pro	.	4A\	pro	.	.	.	.	.	.	.	4a\	pro	.	4a\	pro	.	.	.	.	.	.	.	.	.	.	.
8C#/J|	.	.	8c#'/J	.	8c#'/J	.	.	.	.	.	.	.	.	.	.	.	.	.	.	.	.	.	.	.	.	.	.	.	.	.	.	.	.	.
!	!	!	!	!	!	!	!	!	!	!LO:LB:g=original	!	!	!	!	!	!	!	!	!	!	!	!	!	!	!	!	!	!	!	!	!	!	!	!
=16	=16	=16	=16	=16	=16	=16	=16	=16	=16	=16	=16	=16	=16	=16	=16	=16	=16	=16	=16	=16	=16	=16	=16	=16	=16	=16	=16	=16	=16	=16	=16	=16	=16	=16
8D/L|	.	.	8d'/L	.	8d'/L	.	4F\	no-	.	4F/	no-	.	.	.	.	.	.	.	4f\	no-	.	4f/	no-	.	2.r	.	.	.	.	.	.	.	.	.
8AA/|	.	.	8A'/	.	8A'/	.	.	.	.	.	.	.	.	.	.	.	.	.	.	.	.	.	.	.	.	.	.	.	.	.	.	.	.	.
8D/|	.	.	8d'/	.	8d'/	.	4D\	-bis	.	4D/	-bis	.	.	.	.	.	.	.	4d\	-bis	.	4d/	-bis	.	.	.	.	.	.	.	.	.	.	.
8Cn/|	.	.	8cn'/	.	8cn'/	.	.	.	.	.	.	.	.	.	.	.	.	.	.	.	.	.	.	.	.	.	.	.	.	.	.	.	.	.
8BB-X/|	.	.	8B-X'/	.	8B-X'/	.	4r	.	.	4r	.	.	.	.	.	.	.	.	4r	.	.	4r	.	.	.	.	.	.	.	.	.	.	.	.
8AA/J|	.	.	8A'/J	.	8A'/J	.	.	.	.	.	.	.	.	.	.	.	.	.	.	.	.	.	.	.	.	.	.	.	.	.	.	.	.	.
!LO:LB:g=original	!	!	!	!	!LO:LB:g=original	!	!LO:LB:g=original	!	!	!	!	!	!	!	!	!	!	!	!	!	!	!LO:LB:g=original	!	!	!	!	!	!	!	!	!	!	!	!
=17	=17	=17	=17	=17	=17	=17	=17	=17	=17	=17	=17	=17	=17	=17	=17	=17	=17	=17	=17	=17	=17	=17	=17	=17	=17	=17	=17	=17	=17	=17	=17	=17	=17	=17
8BB-/L|	.	.	8B-'/L	.	8B-'/L	.	4r	.	.	4r	.	.	4r	.	.	4r	.	.	4r	.	.	4r	.	.	2.r	.	.	.	.	.	.	.	.	.
8AA/|	.	.	8A'/	.	8A'/	.	.	.	.	.	.	.	.	.	.	.	.	.	.	.	.	.	.	.	.	.	.	.	.	.	.	.	.	.
8BB-/|	.	.	8B-'/	.	8B-'/	.	4r	.	.	4r	.	.	4r	.	.	4r	.	.	4r	.	.	4r	.	.	.	.	.	.	.	.	.	.	.	.
8C/|	.	.	8c'/	.	8c'/	.	.	.	.	.	.	.	.	.	.	.	.	.	.	.	.	.	.	.	.	.	.	.	.	.	.	.	.	.
8D/|	.	.	8d'/	.	8d'/	.	4D\	Re-	.	4d\	Re-	.	4d\	Re-	.	4dd\	Re-	.	4d\	Re-	.	4dd\	Re-	.	.	.	.	.	.	.	.	.	.	.
8C/J|	.	.	8c'/J	.	8c'/J	.	.	.	.	.	.	.	.	.	.	.	.	.	.	.	.	.	.	.	.	.	.	.	.	.	.	.	.	.
!	!	!	!	!	!	!	!	!	!	!	!	!	!LO:LB:g=original	!	!	!	!	!	!	!	!	!	!	!	!	!	!	!	!	!	!	!	!	!
=18	=18	=18	=18	=18	=18	=18	=18	=18	=18	=18	=18	=18	=18	=18	=18	=18	=18	=18	=18	=18	=18	=18	=18	=18	=18	=18	=18	=18	=18	=18	=18	=18	=18	=18
8BB-/L|	.	.	8B-'/L	.	8B-'/L	.	2D\	-gi-	.	2d\	-gi-	.	2d\	-gi-	.	2dd\	-gi-	.	2d\	-gi-	.	2dd\	-gi-	.	2.r	.	.	.	.	.	.	.	.	.
8AA/|	.	.	8A'/	.	8A'/	.	.	.	.	.	.	.	.	.	.	.	.	.	.	.	.	.	.	.	.	.	.	.	.	.	.	.	.	.
8BB-/|	.	.	8B-'/	.	8B-'/	.	.	.	.	.	.	.	.	.	.	.	.	.	.	.	.	.	.	.	.	.	.	.	.	.	.	.	.	.
8C/|	.	.	8c'/	.	8c'/	.	.	.	.	.	.	.	.	.	.	.	.	.	.	.	.	.	.	.	.	.	.	.	.	.	.	.	.	.
8D/|	.	.	8d'/	.	8d'/	.	4D\	-na	.	4d\	-na	.	4d\	-na	.	4dd\	-na	.	4d\	-na	.	4dd\	-na	.	.	.	.	.	.	.	.	.	.	.
8BB-/J|	.	.	8B-'/J	.	8B-'/J	.	.	.	.	.	.	.	.	.	.	.	.	.	.	.	.	.	.	.	.	.	.	.	.	.	.	.	.	.
!	!	!	!	!	!	!	!	!	!	!	!	!	!	!	!	!LO:LB:g=original	!	!	!LO:LB:g=original	!	!	!	!	!	!	!	!	!	!	!	!	!	!	!
=19	=19	=19	=19	=19	=19	=19	=19	=19	=19	=19	=19	=19	=19	=19	=19	=19	=19	=19	=19	=19	=19	=19	=19	=19	=19	=19	=19	=19	=19	=19	=19	=19	=19	=19
8A\L|	.	.	8a'/L	.	8a'/L	.	2F\	A-	.	2f\	A-	.	2f\	A-	.	2ff\	A-	.	2f\	A-	.	2ff\	A-	.	2.r	.	1.r	.	1.r	.	2.r	.	2.r	.
8G\|	.	.	8g'/	.	8g'/	.	.	.	.	.	.	.	.	.	.	.	.	.	.	.	.	.	.	.	.	.	.	.	.	.	.	.	.	.
8A\|	.	.	8a'/	.	8a'/	.	.	.	.	.	.	.	.	.	.	.	.	.	.	.	.	.	.	.	.	.	.	.	.	.	.	.	.	.
8F\|	.	.	8f'/	.	8f'/	.	.	.	.	.	.	.	.	.	.	.	.	.	.	.	.	.	.	.	.	.	.	.	.	.	.	.	.	.
8G\|	.	.	8g'/	.	8g'/	.	8F\	-pos-	.	8f\	-pos-	.	8f\	-pos-	.	8ff\	-pos-	.	8f\	-pos-	.	8ff\	-pos-	.	.	.	.	.	.	.	.	.	.	.
8A\J|	.	.	8a'/J	.	8a'/J	.	8F\	-to-	.	8f\	-to-	.	8f\	-to-	.	8ff\	-to-	.	8f\	-to-	.	8ff\	-to-	.	.	.	.	.	.	.	.	.	.	.
!	!	!	!LO:LB:g=original	!	!	!	!	!	!	!	!	!	!	!	!	!	!	!	!	!	!	!	!	!	!	!	!	!	!	!	!LO:LB:g=original	!	!	!
=20	=20	=20	=20	=20	=20	=20	=20	=20	=20	=20	=20	=20	=20	=20	=20	=20	=20	=20	=20	=20	=20	=20	=20	=20	=20	=20	=20	=20	=20	=20	=20	=20	=20	=20
8B-\L|	.	.	8b-\L|	.	8b-'\L	.	4D\	-lo-	.	4d\	-lo-	.	4d\	-lo-	.	4dd\	-lo-	.	4d\	-lo-	.	4dd\	-lo-	.	2.r	.	.	.	.	.	4r	.	4r	.
8A\|	.	.	8a\|	.	8a'\	.	.	.	.	.	.	.	.	.	.	.	.	.	.	.	.	.	.	.	.	.	.	.	.	.	.	.	.	.
8B-\|	.	.	8b-\|	.	8b-'\	.	4BB-/	-rum	.	4B-\	-rum	.	4B-/	-rum	.	4b-\	-rum	.	4B-/	-rum	.	4b-\	-rum	.	.	.	.	.	.	.	4r	.	4r	.
8c\|	.	.	8cc\|	.	8cc'\	.	.	.	.	.	.	.	.	.	.	.	.	.	.	.	.	.	.	.	.	.	.	.	.	.	.	.	.	.
!	!	!	!	!	!	!	!	!	!	!	!	!	!LO:TX:a:t=Solo	!	!	!LO:TX:a:i:t=Solo	!	!	!	!	!	!	!	!	!	!	!	!	!	!	!	!	!	!
8d\|	.	.	8dd\|	.	8dd'\	.	4r	.	.	4r	.	.	4d\	o-	.	4dd\	o-	.	4r	.	.	4r	.	.	.	.	.	.	.	.	4d/	.	4dd\	.
8B-\J|	.	.	8b-\J|	.	8b-'\J	.	.	.	.	.	.	.	.	.	.	.	.	.	.	.	.	.	.	.	.	.	.	.	.	.	.	.	.	.
!	!	!	!	!	!	!	!	!	!	!	!	!	!	!	!	!	!	!	!	!	!	!	!	!	!	!	!LO:LB:g=original	!	!	!	!	!	!LO:LB:g=original	!
=21	=21	=21	=21	=21	=21	=21	=21	=21	=21	=21	=21	=21	=21	=21	=21	=21	=21	=21	=21	=21	=21	=21	=21	=21	=21	=21	=21	=21	=21	=21	=21	=21	=21	=21
*	*	*	*	*	*	*	*	*	*	*	*	*	*	*	*	*	*	*	*	*	*	*	*	*	*	*	*	*	*2\right	*	*	*	*	*
!	!	!	!	!	!	!	!LO:TX:a:t=1	!	!	!LO:TX:a:t=1.	!	!	!	!	!	!	!	!	!LO:TX:a:t=1	!	!	!LO:TX:a:t=1	!	!	!	!	!	!	!	!	!	!	!	!
8A\L|	.	.	8a/L|	.	8a'/L	.	2.r	.	.	2.r	.	.	2f\	-ra	.	2ff\	-ra	.	2.r	.	.	2.r	.	.	2.r	.	2F/	.	2f\	.	2f/	.	2ff\	.
8G\|	.	.	8g/|	.	8g'/	.	.	.	.	.	.	.	.	.	.	.	.	.	.	.	.	.	.	.	.	.	.	.	.	.	.	.	.	.
8A\|	.	.	8a/|	.	8a'/	.	.	.	.	.	.	.	.	.	.	.	.	.	.	.	.	.	.	.	.	.	.	.	.	.	.	.	.	.
8F\|	.	.	8f/|	.	8f'/	.	.	.	.	.	.	.	.	.	.	.	.	.	.	.	.	.	.	.	.	.	.	.	.	.	.	.	.	.
8G\|	.	.	8g/|	.	8g'/	.	.	.	.	.	.	.	4f\	pro	.	4ff\	pro	.	.	.	.	.	.	.	.	.	4F/	.	4f\	.	4f/	.	4ff\	.
8A\J|	.	.	8a/J|	.	8a'/J	.	.	.	.	.	.	.	.	.	.	.	.	.	.	.	.	.	.	.	.	.	.	.	.	.	.	.	.	.
!	!	!	!	!	!	!	!	!	!	!	!	!	!	!	!	!	!	!	!	!	!	!	!	!	!	!	!	!	!LO:LB:g=original	!	!	!	!	!
=22	=22	=22	=22	=22	=22	=22	=22	=22	=22	=22	=22	=22	=22	=22	=22	=22	=22	=22	=22	=22	=22	=22	=22	=22	=22	=22	=22	=22	=22	=22	=22	=22	=22	=22
!	!	!	!	!	!	!	!	!	!	!	!	!	!	!	!	!	!	!	!	!	!	!	!	!	!	!	!LO:TX:a:t=38.	!	!LO:TX:t=P:problem=uszkodzony papier	!	!	!	!	!
8B-\L|	.	.	8b-\L|	.	8b-'\L	.	4r	.	.	4r	.	.	4d\	no-	.	4dd\	no-	.	4r	.	.	4r	.	.	2.r	.	0.r	.	2.ryy	.	4d/	.	4dd\	.
8A\|	.	.	8a\|	.	8a'\	.	.	.	.	.	.	.	.	.	.	.	.	.	.	.	.	.	.	.	.	.	.	.	.	.	.	.	.	.
8B-\|	.	.	8b-'\	.	8b-'\	.	4r	.	.	4r	.	.	4B-/	-bis	.	4b-\	-bis	.	4r	.	.	4r	.	.	.	.	.	.	.	.	4B-/	.	4b-\	.
8c\|	.	.	8cc'\	.	8cc'\	.	.	.	.	.	.	.	.	.	.	.	.	.	.	.	.	.	.	.	.	.	.	.	.	.	.	.	.	.
8d\|	.	.	8dd'\	.	8dd'\	.	4D\	o-	.	4d\	o-	.	4r	.	.	4r	.	.	4d\	o-	.	4dd\	o-	.	.	.	.	.	.	.	4r	.	4r	.
8B-\J|	.	.	8b-'\J	.	8b-'\J	.	.	.	.	.	.	.	.	.	.	.	.	.	.	.	.	.	.	.	.	.	.	.	.	.	.	.	.	.
!LO:LB:g=original	!	!	!	!	!LO:LB:g=original	!	!	!	!	!	!	!	!	!	!	!	!	!	!	!	!	!	!	!	!	!	!	!	!	!	!	!	!	!
=23	=23	=23	=23	=23	=23	=23	=23	=23	=23	=23	=23	=23	=23	=23	=23	=23	=23	=23	=23	=23	=23	=23	=23	=23	=23	=23	=23	=23	=23	=23	=23	=23	=23	=23
!	!	!	!	!	!	!	!	!	!	!	!	!	!LO:TX:a:t=2.	!	!	!LO:TX:a:t=2.	!	!	!	!	!	!	!	!	!	!	!	!	!	!	!LO:TX:a:t=5.	!	!LO:TX:a:t=5.	!
8A\L|	.	.	8a/L|	.	8a'/L	.	2F\	-ra	.	2f\	-ra	.	1.r	.	.	1.r	.	.	2f\	-ra	.	2ff\	-ra	.	2.r	.	.	.	2.ryy	.	0.r	.	0.r	.
8G\|	.	.	8g'/	.	8g'/	.	.	.	.	.	.	.	.	.	.	.	.	.	.	.	.	.	.	.	.	.	.	.	.	.	.	.	.	.
8A\|	.	.	8a'/	.	8a'/	.	.	.	.	.	.	.	.	.	.	.	.	.	.	.	.	.	.	.	.	.	.	.	.	.	.	.	.	.
8F\|	.	.	8f'/	.	8f'/	.	.	.	.	.	.	.	.	.	.	.	.	.	.	.	.	.	.	.	.	.	.	.	.	.	.	.	.	.
8G\|	.	.	8g'/	.	8g'/	.	4F\	pro	.	4f\	pro	.	.	.	.	.	.	.	4f\	pro	.	4ff\	pro	.	.	.	.	.	.	.	.	.	.	.
8A\J|	.	.	8a'/J	.	8a'/J	.	.	.	.	.	.	.	.	.	.	.	.	.	.	.	.	.	.	.	.	.	.	.	.	.	.	.	.	.
=24	=24	=24	=24	=24	=24	=24	=24	=24	=24	=24	=24	=24	=24	=24	=24	=24	=24	=24	=24	=24	=24	=24	=24	=24	=24	=24	=24	=24	=24	=24	=24	=24	=24	=24
8B-\L|	.	.	8b-'/L	.	8b-'/L	.	4D\	no-	.	4d\	no-	.	.	.	.	.	.	.	4d\	no-	.	4dd\	no-	.	2.r	.	.	.	2.ryy	.	.	.	.	.
8F\|	.	.	8f'/	.	8f'/	.	.	.	.	.	.	.	.	.	.	.	.	.	.	.	.	.	.	.	.	.	.	.	.	.	.	.	.	.
8B-\|	.	.	8b-'/	.	8b-'/	.	4BB-/	-bis	.	4B-\	-bis	.	.	.	.	.	.	.	4B-/	-bis	.	4b-\	-bis	.	.	.	.	.	.	.	.	.	.	.
8A\|	.	.	8a'/	.	8a'/	.	.	.	.	.	.	.	.	.	.	.	.	.	.	.	.	.	.	.	.	.	.	.	.	.	.	.	.	.
8G\|	.	.	8g'/	.	8g'/	.	4r	.	.	4r	.	.	.	.	.	.	.	.	4r	.	.	4r	.	.	.	.	.	.	.	.	.	.	.	.
8F#X\J|	.	.	8f#X'/J	.	8f#X'/J	.	.	.	.	.	.	.	.	.	.	.	.	.	.	.	.	.	.	.	.	.	.	.	.	.	.	.	.	.
!	!	!	!	!	!	!	!LO:LB:g=original	!	!	!LO:LB:g=original	!	!	!	!	!	!	!	!	!	!	!	!LO:LB:g=original	!	!	!	!	!	!	!	!	!	!	!	!
=25	=25	=25	=25	=25	=25	=25	=25	=25	=25	=25	=25	=25	=25	=25	=25	=25	=25	=25	=25	=25	=25	=25	=25	=25	=25	=25	=25	=25	=25	=25	=25	=25	=25	=25
8G\L|	.	.	8g'/L	.	8g'/L	.	4r	.	.	4r	.	.	4r	.	.	4r	.	.	4r	.	.	4r	.	.	2.r	.	.	.	2.ryy	.	.	.	.	.
8F#X\|	.	.	8f#X'/	.	8f#X'/	.	.	.	.	.	.	.	.	.	.	.	.	.	.	.	.	.	.	.	.	.	.	.	.	.	.	.	.	.
8G\|	.	.	8g'/	.	8g'/	.	4r	.	.	4r	.	.	4r	.	.	4r	.	.	4r	.	.	4r	.	.	.	.	.	.	.	.	.	.	.	.
8A\|	.	.	8a'/	.	8a'/	.	.	.	.	.	.	.	.	.	.	.	.	.	.	.	.	.	.	.	.	.	.	.	.	.	.	.	.	.
8B-\|	.	.	8b-'/	.	8b-'/	.	4B-\	Re-	.	4B-\	Re-	.	4b-\	Re-	.	4b-\	Re-	.	4b-\	Re-	.	4b-\	Re-	.	.	.	.	.	.	.	.	.	.	.
8A\J|	.	.	8a'/J	.	8a'/J	.	.	.	.	.	.	.	.	.	.	.	.	.	.	.	.	.	.	.	.	.	.	.	.	.	.	.	.	.
=26	=26	=26	=26	=26	=26	=26	=26	=26	=26	=26	=26	=26	=26	=26	=26	=26	=26	=26	=26	=26	=26	=26	=26	=26	=26	=26	=26	=26	=26	=26	=26	=26	=26	=26
8G\L|	.	.	8g'/L	.	8g'/L	.	2B-\	-gi-	.	2B-\	-gi-	.	2b-\	-gi-	.	2b-\	-gi-	.	2b-\	-gi-	.	2b-\	-gi-	.	2.r	.	0.r	.	2.ryy	.	.	.	.	.
8F#X\|	.	.	8f#X'/	.	8f#X'/	.	.	.	.	.	.	.	.	.	.	.	.	.	.	.	.	.	.	.	.	.	.	.	.	.	.	.	.	.
8G\|	.	.	8g'/	.	8g'/	.	.	.	.	.	.	.	.	.	.	.	.	.	.	.	.	.	.	.	.	.	.	.	.	.	.	.	.	.
8A\|	.	.	8a'/	.	8a'/	.	.	.	.	.	.	.	.	.	.	.	.	.	.	.	.	.	.	.	.	.	.	.	.	.	.	.	.	.
8B-\|	.	.	8b-'/	.	8b-'/	.	4B-\	-na	.	4B-\	-na	.	4b-\	-na	.	4b-\	-na	.	4b-\	-na	.	4b-\	-na	.	.	.	.	.	.	.	.	.	.	.
8G\J|	.	.	8g'/J	.	8g'/J	.	.	.	.	.	.	.	.	.	.	.	.	.	.	.	.	.	.	.	.	.	.	.	.	.	.	.	.	.
!	!	!	!LO:LB:g=original	!	!	!	!	!	!	!	!	!	!	!	!	!	!	!	!	!	!	!	!	!	!	!	!	!	!	!	!	!	!	!
=27	=27	=27	=27	=27	=27	=27	=27	=27	=27	=27	=27	=27	=27	=27	=27	=27	=27	=27	=27	=27	=27	=27	=27	=27	=27	=27	=27	=27	=27	=27	=27	=27	=27	=27
8F#X\L|	.	.	8f#X'/L	.	8f#X/L	.	2.d\	Mar-	.	2.d\	Mar-	.	2.dd\	Mar-	.	2.dd\	Mar-	.	2.dd\	Mar-	.	2.dd\	Mar-	.	2.r	.	.	.	2.ryy	.	2.r	.	2.r	.
8E\|	.	.	8e'/	.	8e/	.	.	.	.	.	.	.	.	.	.	.	.	.	.	.	.	.	.	.	.	.	.	.	.	.	.	.	.	.
8F#\|	.	.	8f#'/	.	8f#/	.	.	.	.	.	.	.	.	.	.	.	.	.	.	.	.	.	.	.	.	.	.	.	.	.	.	.	.	.
8D\|	.	.	8d'/	.	8d/	.	.	.	.	.	.	.	.	.	.	.	.	.	.	.	.	.	.	.	.	.	.	.	.	.	.	.	.	.
8E\|	.	.	8e'/	.	8e/	.	.	.	.	.	.	.	.	.	.	.	.	.	.	.	.	.	.	.	.	.	.	.	.	.	.	.	.	.
8F#\J|	.	.	8f#'/J	.	8f#/J	.	.	.	.	.	.	.	.	.	.	.	.	.	.	.	.	.	.	.	.	.	.	.	.	.	.	.	.	.
!	!	!	!	!	!	!	!	!	!	!	!	!	!LO:LB:g=original	!	!	!	!	!	!LO:LB:g=original	!	!	!	!	!	!	!	!	!	!	!	!	!	!	!
=28	=28	=28	=28	=28	=28	=28	=28	=28	=28	=28	=28	=28	=28	=28	=28	=28	=28	=28	=28	=28	=28	=28	=28	=28	=28	=28	=28	=28	=28	=28	=28	=28	=28	=28
8G\L|	.	.	8g'/L	.	8g'/L	.	4B-\	-ty-	.	4B-\	-ty-	.	4b-\	-ty-	.	4b-\	-ty-	.	4b-\	-ty-	.	4b-\	-ty-	.	2.r	.	.	.	2.ryy	.	4r	.	4r	.
8F#X\|	.	.	8f#X'/	.	8f#X'/	.	.	.	.	.	.	.	.	.	.	.	.	.	.	.	.	.	.	.	.	.	.	.	.	.	.	.	.	.
8G\|	.	.	8g'/	.	8g'/	.	4G\	-rum	.	4G/	-rum	.	4g\	-rum	.	4g\	-rum	.	4g\	-rum	.	4g\	-rum	.	.	.	.	.	.	.	4r	.	4r	.
8A\|	.	.	8a'/	.	8a'/	.	.	.	.	.	.	.	.	.	.	.	.	.	.	.	.	.	.	.	.	.	.	.	.	.	.	.	.	.
!	!	!	!	!	!	!	!	!	!	!	!	!	!LO:TX:a:t=Solo	!	!	!LO:TX:a:t=Solo	!	!	!	!	!	!	!	!	!	!	!	!	!	!	!	!	!	!
8B-\|	.	.	8b-'/	.	8b-'/	.	4r	.	.	4r	.	.	4b-\	o-	.	4b-\	o-	.	4r	.	.	4r	.	.	.	.	.	.	.	.	4b-\	.	4b-\	.
8G\J|	.	.	8g'/J	.	8g'/J	.	.	.	.	.	.	.	.	.	.	.	.	.	.	.	.	.	.	.	.	.	.	.	.	.	.	.	.	.
!LO:LB:g=original	!	!	!	!	!LO:LB:g=original	!	!	!	!	!	!	!	!	!	!	!LO:LB:g=original	!	!	!	!	!	!	!	!	!	!	!	!	!	!	!	!	!	!
=29	=29	=29	=29	=29	=29	=29	=29	=29	=29	=29	=29	=29	=29	=29	=29	=29	=29	=29	=29	=29	=29	=29	=29	=29	=29	=29	=29	=29	=29	=29	=29	=29	=29	=29
!	!	!	!	!	!	!	!LO:TX:a:t=1.	!	!	!LO:TX:a:t=1.	!	!	!	!	!	!	!	!	!LO:TX:a:t=1	!	!	!LO:TX:a:t=1	!	!	!	!	!	!	!	!	!	!	!	!
8F#X\L|	.	.	8f#X'/L	.	8f#X'/L	.	2.r	.	.	2.r	.	.	2dd\	-ra	.	2dd\	-ra	.	2.r	.	.	2.r	.	.	2.r	.	.	.	2.ryy	.	2dd\	.	2dd\	.
8E\|	.	.	8e'/	.	8e'/	.	.	.	.	.	.	.	.	.	.	.	.	.	.	.	.	.	.	.	.	.	.	.	.	.	.	.	.	.
8F#\|	.	.	8f#'/	.	8f#'/	.	.	.	.	.	.	.	.	.	.	.	.	.	.	.	.	.	.	.	.	.	.	.	.	.	.	.	.	.
8D\|	.	.	8d'/	.	8d'/	.	.	.	.	.	.	.	.	.	.	.	.	.	.	.	.	.	.	.	.	.	.	.	.	.	.	.	.	.
8E\|	.	.	8e'/	.	8e'/	.	.	.	.	.	.	.	4dd\	pro	.	4dd\	pro	.	.	.	.	.	.	.	.	.	.	.	.	.	4dd\	.	4dd\	.
8F#\J|	.	.	8f#'/J	.	8f#'/J	.	.	.	.	.	.	.	.	.	.	.	.	.	.	.	.	.	.	.	.	.	.	.	.	.	.	.	.	.
=30	=30	=30	=30	=30	=30	=30	=30	=30	=30	=30	=30	=30	=30	=30	=30	=30	=30	=30	=30	=30	=30	=30	=30	=30	=30	=30	=30	=30	=30	=30	=30	=30	=30	=30
8G\L|	.	.	8g'/L	.	8g'/L	.	4r	.	.	4r	.	.	4b-\	no-	.	4b-\	no-	.	4r	.	.	4r	.	.	2.r	.	0.r	.	2.ryy	.	4b-\	.	4b-\	.
8F#X\|	.	.	8f#X'/	.	8f#X'/	.	.	.	.	.	.	.	.	.	.	.	.	.	.	.	.	.	.	.	.	.	.	.	.	.	.	.	.	.
8G\|	.	.	8g'/	.	8g'/	.	4r	.	.	4r	.	.	4g\	-bis	.	4g\	-bis	.	4r	.	.	4r	.	.	.	.	.	.	.	.	4g/	.	4g/	.
8A\|	.	.	8a'/	.	8a'/	.	.	.	.	.	.	.	.	.	.	.	.	.	.	.	.	.	.	.	.	.	.	.	.	.	.	.	.	.
8B-\|	.	.	8b-'/	.	8b-'/	.	4B-\	o-	.	4B-\	o-	.	4r	.	.	4r	.	.	4b-\	o-	.	4b-\	o-	.	.	.	.	.	.	.	4r	.	4r	.
8G\J|	.	.	8g'/J	.	8g'/J	.	.	.	.	.	.	.	.	.	.	.	.	.	.	.	.	.	.	.	.	.	.	.	.	.	.	.	.	.
=31	=31	=31	=31	=31	=31	=31	=31	=31	=31	=31	=31	=31	=31	=31	=31	=31	=31	=31	=31	=31	=31	=31	=31	=31	=31	=31	=31	=31	=31	=31	=31	=31	=31	=31
!	!	!	!	!	!	!	!	!	!	!	!	!	!LO:TX:a:t=2.	!	!	!LO:TX:a:t=2.	!	!	!	!	!	!	!	!	!	!	!	!	!	!	!LO:TX:a:t=5	!	!LO:TX:a:t=5.	!
8F#X\L|	.	.	8f#X'/L	.	8f#X'/L	.	2d\	-ra	.	2d\	-ra	.	1.r	.	.	1.r	.	.	2dd\	-ra	.	2dd\	-ra	.	2.r	.	.	.	2.ryy	.	0.r	.	0.r	.
8E\|	.	.	8e'/	.	8e'/	.	.	.	.	.	.	.	.	.	.	.	.	.	.	.	.	.	.	.	.	.	.	.	.	.	.	.	.	.
8F#\|	.	.	8f#'/	.	8f#'/	.	.	.	.	.	.	.	.	.	.	.	.	.	.	.	.	.	.	.	.	.	.	.	.	.	.	.	.	.
8D\|	.	.	8d'/	.	8d'/	.	.	.	.	.	.	.	.	.	.	.	.	.	.	.	.	.	.	.	.	.	.	.	.	.	.	.	.	.
8E\|	.	.	8e'/	.	8e'/	.	4d\	pro	.	4d\	pro	.	.	.	.	.	.	.	4dd\	pro	.	4dd\	pro	.	.	.	.	.	.	.	.	.	.	.
8F#\J|	.	.	8f#'/J	.	8f#'/J	.	.	.	.	.	.	.	.	.	.	.	.	.	.	.	.	.	.	.	.	.	.	.	.	.	.	.	.	.
=32	=32	=32	=32	=32	=32	=32	=32	=32	=32	=32	=32	=32	=32	=32	=32	=32	=32	=32	=32	=32	=32	=32	=32	=32	=32	=32	=32	=32	=32	=32	=32	=32	=32	=32
8G\L|	.	.	8g'/L	.	8g'/L	.	4B-\	no-	.	4B-\	no-	.	.	.	.	.	.	.	4b-\	no-	.	4b-\	no-	.	2.r	.	.	.	2.ryy	.	.	.	.	.
8D\|	.	.	8d'/	.	8d'/	.	.	.	.	.	.	.	.	.	.	.	.	.	.	.	.	.	.	.	.	.	.	.	.	.	.	.	.	.
8G\|	.	.	8g'/	.	8g'/	.	4G\	-bis	.	4G/	-bis	.	.	.	.	.	.	.	4g\	-bis	.	4g\	-bis	.	.	.	.	.	.	.	.	.	.	.
8Fn\|	.	.	8fn'/	.	8fn'/	.	.	.	.	.	.	.	.	.	.	.	.	.	.	.	.	.	.	.	.	.	.	.	.	.	.	.	.	.
8E-X\|	.	.	8e-X'/	.	8e-X'/	.	4r	.	.	4r	.	.	.	.	.	.	.	.	4r	.	.	4r	.	.	.	.	.	.	.	.	.	.	.	.
8D\J|	.	.	8d'/J	.	8d'/J	.	.	.	.	.	.	.	.	.	.	.	.	.	.	.	.	.	.	.	.	.	.	.	.	.	.	.	.	.
!	!	!	!	!	!	!	!LO:LB:g=original	!	!	!	!	!	!	!	!	!	!	!	!	!	!	!LO:LB:g=original	!	!	!	!	!	!	!	!	!	!	!	!
=33	=33	=33	=33	=33	=33	=33	=33	=33	=33	=33	=33	=33	=33	=33	=33	=33	=33	=33	=33	=33	=33	=33	=33	=33	=33	=33	=33	=33	=33	=33	=33	=33	=33	=33
8E-X\L|	.	.	8e-X'/L	.	8e-X'/L	.	4r	.	.	4r	.	.	4r	.	.	4r	.	.	4r	.	.	4r	.	.	2.r	.	.	.	2.ryy	.	.	.	.	.
8D\|	.	.	8d'/	.	8d'/	.	.	.	.	.	.	.	.	.	.	.	.	.	.	.	.	.	.	.	.	.	.	.	.	.	.	.	.	.
8E-\|	.	.	8e-'/	.	8e-'/	.	4r	.	.	4r	.	.	4r	.	.	4r	.	.	4r	.	.	4r	.	.	.	.	.	.	.	.	.	.	.	.
8F\|	.	.	8f'/	.	8f'/	.	.	.	.	.	.	.	.	.	.	.	.	.	.	.	.	.	.	.	.	.	.	.	.	.	.	.	.	.
8G\|	.	.	8g'/	.	8g'/	.	4G\	Re-	.	4G/	Re-	.	4g\	Re-	.	4g\	Re-	.	4g\	Re-	.	4g\	Re-	.	.	.	.	.	.	.	.	.	.	.
8F\J|	.	.	8f'/J	.	8f'/J	.	.	.	.	.	.	.	.	.	.	.	.	.	.	.	.	.	.	.	.	.	.	.	.	.	.	.	.	.
!	!	!	!LO:LB:g=original	!	!	!	!	!	!	!LO:LB:g=original	!	!	!	!	!	!	!	!	!	!	!	!	!	!	!	!	!	!	!	!	!	!	!	!
=34	=34	=34	=34	=34	=34	=34	=34	=34	=34	=34	=34	=34	=34	=34	=34	=34	=34	=34	=34	=34	=34	=34	=34	=34	=34	=34	=34	=34	=34	=34	=34	=34	=34	=34
8E-X\L|	.	.	8e-X'/L	.	8e-X'/L	.	2G\	-gi-	.	2G/	-gi-	.	2g\	-gi-	.	2g\	-gi-	.	2g\	-gi-	.	2g\	-gi-	.	2.r	.	0.r	.	1.r	.	.	.	.	.
8D\|	.	.	8d'/	.	8d'/	.	.	.	.	.	.	.	.	.	.	.	.	.	.	.	.	.	.	.	.	.	.	.	.	.	.	.	.	.
8E-\|	.	.	8e-'/	.	8e-'/	.	.	.	.	.	.	.	.	.	.	.	.	.	.	.	.	.	.	.	.	.	.	.	.	.	.	.	.	.
8F\|	.	.	8f'/	.	8f'/	.	.	.	.	.	.	.	.	.	.	.	.	.	.	.	.	.	.	.	.	.	.	.	.	.	.	.	.	.
8G\|	.	.	8g'/	.	8g'/	.	4G\	-na	.	4G/	-na	.	4g\	-na	.	4g\	-na	.	4g\	-na	.	4g\	-na	.	.	.	.	.	.	.	.	.	.	.
8E-\J|	.	.	8e-'/J	.	8e-'/J	.	.	.	.	.	.	.	.	.	.	.	.	.	.	.	.	.	.	.	.	.	.	.	.	.	.	.	.	.
!LO:LB:g=original	!	!	!	!	!LO:LB:g=original	!	!	!	!	!	!	!	!	!	!	!	!	!	!	!	!	!	!	!	!	!	!	!	!	!	!	!	!	!
=35	=35	=35	=35	=35	=35	=35	=35	=35	=35	=35	=35	=35	=35	=35	=35	=35	=35	=35	=35	=35	=35	=35	=35	=35	=35	=35	=35	=35	=35	=35	=35	=35	=35	=35
8D\L|	.	.	8d'/L	.	8d'/L	.	2B-\	Con-	.	2B-\	Con-	.	2b-\	Con-	.	2b-\	Con-	.	2b-\	Con-	.	2b-\	Con-	.	2.r	.	.	.	.	.	2.r	.	2.r	.
8C\|	.	.	8c'/	.	8c'/	.	.	.	.	.	.	.	.	.	.	.	.	.	.	.	.	.	.	.	.	.	.	.	.	.	.	.	.	.
8D\|	.	.	8d'/	.	8d'/	.	.	.	.	.	.	.	.	.	.	.	.	.	.	.	.	.	.	.	.	.	.	.	.	.	.	.	.	.
8BB-\|	.	.	8B-'/	.	8B-'/	.	.	.	.	.	.	.	.	.	.	.	.	.	.	.	.	.	.	.	.	.	.	.	.	.	.	.	.	.
8C\|	.	.	8c'/	.	8c'/	.	4B-\	-fes-	.	4B-\	-fes-	.	4b-\	-fes-	.	4b-\	-fes-	.	4b-\	-fes-	.	4b-\	-fes-	.	.	.	.	.	.	.	.	.	.	.
8D\J|	.	.	8d'/J	.	8d'/J	.	.	.	.	.	.	.	.	.	.	.	.	.	.	.	.	.	.	.	.	.	.	.	.	.	.	.	.	.
=36	=36	=36	=36	=36	=36	=36	=36	=36	=36	=36	=36	=36	=36	=36	=36	=36	=36	=36	=36	=36	=36	=36	=36	=36	=36	=36	=36	=36	=36	=36	=36	=36	=36	=36
8E-X\L|	.	.	8e-X'/L	.	8e-X'/L	.	4G\	-ſo-	.	4G/	-ſo-	.	4g\	-ſo-	.	4g/	-ſo-	.	4g\	-ſo-	.	4g/	-ſo-	.	2.r	.	.	.	4r	.	4r	.	4r	.
8D\|	.	.	8d'/	.	8d'/	.	.	.	.	.	.	.	.	.	.	.	.	.	.	.	.	.	.	.	.	.	.	.	.	.	.	.	.	.
8E-\|	.	.	8e-'/	.	8e-'/	.	4E-X\	-rum	.	4E-X/	-rum	.	4e-X\	-rum,	.	4e-X/	-rum	.	4e-X\	-rum	.	4e-X/	-rum	.	.	.	.	.	4r	.	4r	.	4r	.
8F\|	.	.	8f'/	.	8f'/	.	.	.	.	.	.	.	.	.	.	.	.	.	.	.	.	.	.	.	.	.	.	.	.	.	.	.	.	.
!	!	!	!	!	!	!	!	!	!	!	!	!	!LO:TX:a:t=Solo	!	!	!LO:TX:a:t=Solo	!	!	!	!	!	!	!	!	!	!	!	!	!	!	!	!	!	!
8G\|	.	.	8g'/	.	8g'/	.	4r	.	.	4r	.	.	4g\	o-	.	4g/	o-	.	4r	.	.	4r	.	.	.	.	.	.	4g\	.	4g/	.	4g/	.
8E-\J|	.	.	8e-'/J	.	8e-'/J	.	.	.	.	.	.	.	.	.	.	.	.	.	.	.	.	.	.	.	.	.	.	.	.	.	.	.	.	.
!	!	!	!	!	!	!	!	!	!	!	!	!	!LO:LB:g=original	!	!	!	!	!	!LO:LB:g=original	!	!	!	!	!	!	!	!	!	!	!	!	!	!	!
=37	=37	=37	=37	=37	=37	=37	=37	=37	=37	=37	=37	=37	=37	=37	=37	=37	=37	=37	=37	=37	=37	=37	=37	=37	=37	=37	=37	=37	=37	=37	=37	=37	=37	=37
!	!	!	!	!	!	!	!LO:TX:a:t=1.	!	!	!LO:TX:a:t=1	!	!	!	!	!	!	!	!	!LO:TX:a:t=1	!	!	!LO:TX:a:t=1.	!	!	!	!	!	!	!	!	!	!	!	!
8D\L|	.	.	8d/L	.	8d/L	.	2.r	.	.	2.r	.	.	2b-\	-ra	.	2b-\	-ra	.	2.r	.	.	2.r	.	.	2.r	.	.	.	2b-\	.	2b-\	.	2b-\	.
8C\|	.	.	8c/	.	8c/	.	.	.	.	.	.	.	.	.	.	.	.	.	.	.	.	.	.	.	.	.	.	.	.	.	.	.	.	.
8D\|	.	.	8d/	.	8d/	.	.	.	.	.	.	.	.	.	.	.	.	.	.	.	.	.	.	.	.	.	.	.	.	.	.	.	.	.
8BB-\|	.	.	8B-/	.	8B-/	.	.	.	.	.	.	.	.	.	.	.	.	.	.	.	.	.	.	.	.	.	.	.	.	.	.	.	.	.
8C\|	.	.	8c/	.	8c/	.	.	.	.	.	.	.	4b-\	pro	.	4b-\	pro	.	.	.	.	.	.	.	.	.	.	.	4b-\	.	4b-\	.	4b-\	.
8D\J|	.	.	8d/J	.	8d/J	.	.	.	.	.	.	.	.	.	.	.	.	.	.	.	.	.	.	.	.	.	.	.	.	.	.	.	.	.
=38	=38	=38	=38	=38	=38	=38	=38	=38	=38	=38	=38	=38	=38	=38	=38	=38	=38	=38	=38	=38	=38	=38	=38	=38	=38	=38	=38	=38	=38	=38	=38	=38	=38	=38
8E-X\L|	.	.	8e-X'/L	.	8e-X'/L	.	4r	.	.	4r	.	.	4g\	no-	.	4g/	no-	.	4r	.	.	4r	.	.	2.r	.	0.r	.	4g\	.	4g/	.	4g/	.
8D\|	.	.	8d'/	.	8d'/	.	.	.	.	.	.	.	.	.	.	.	.	.	.	.	.	.	.	.	.	.	.	.	.	.	.	.	.	.
8E-\|	.	.	8e-'/	.	8e-'/	.	4r	.	.	4r	.	.	4e-X\	-bis	.	4e-X/	-bis	.	4r	.	.	4r	.	.	.	.	.	.	4e-X\	.	4e-/	.	4e-/	.
8F\|	.	.	8f'/	.	8f'/	.	.	.	.	.	.	.	.	.	.	.	.	.	.	.	.	.	.	.	.	.	.	.	.	.	.	.	.	.
8G\|	.	.	8g'/	.	8g'/	.	4G\	o-	.	4G/	o-	.	4r	.	.	4r	.	.	4g\	o-	.	4g\	o-	.	.	.	.	.	4r	.	4r	.	4r	.
8E-\J|	.	.	8e-'/J	.	8e-'/J	.	.	.	.	.	.	.	.	.	.	.	.	.	.	.	.	.	.	.	.	.	.	.	.	.	.	.	.	.
!	!	!	!	!	!	!	!	!	!	!	!	!	!	!	!	!LO:LB:g=original	!	!	!	!	!	!	!	!	!	!	!	!	!	!	!	!	!	!
=39	=39	=39	=39	=39	=39	=39	=39	=39	=39	=39	=39	=39	=39	=39	=39	=39	=39	=39	=39	=39	=39	=39	=39	=39	=39	=39	=39	=39	=39	=39	=39	=39	=39	=39
!	!	!	!	!	!	!	!	!	!	!	!	!	!LO:TX:a:t=2	!	!	!LO:TX:a:t=2.	!	!	!	!	!	!	!	!	!	!	!	!	!LO:TX:a:t=5	!	!LO:TX:a:t=5.	!	!LO:TX:a:t=5	!
8D\L|	.	.	8d'/L	.	8d'/L	.	2B-\	-ra	.	2B-\	-ra	.	1.r	.	.	1.r	.	.	2b-\	-ra	.	2b-\	-ra	.	2.r	.	.	.	0.r	.	0.r	.	0.r	.
8C\|	.	.	8c'/	.	8c'/	.	.	.	.	.	.	.	.	.	.	.	.	.	.	.	.	.	.	.	.	.	.	.	.	.	.	.	.	.
8D\|	.	.	8d'/	.	8d'/	.	.	.	.	.	.	.	.	.	.	.	.	.	.	.	.	.	.	.	.	.	.	.	.	.	.	.	.	.
8BB-\|	.	.	8B-'/	.	8B-'/	.	.	.	.	.	.	.	.	.	.	.	.	.	.	.	.	.	.	.	.	.	.	.	.	.	.	.	.	.
8C\|	.	.	8c'/	.	8c'/	.	4B-\	pro	.	4B-\	pro	.	.	.	.	.	.	.	4b-\	pro	.	4b-\	pro	.	.	.	.	.	.	.	.	.	.	.
8D\J|	.	.	8d'/J	.	8d'/J	.	.	.	.	.	.	.	.	.	.	.	.	.	.	.	.	.	.	.	.	.	.	.	.	.	.	.	.	.
=40	=40	=40	=40	=40	=40	=40	=40	=40	=40	=40	=40	=40	=40	=40	=40	=40	=40	=40	=40	=40	=40	=40	=40	=40	=40	=40	=40	=40	=40	=40	=40	=40	=40	=40
8E-X\L|	.	.	8e-X'/L	.	8e-X'/L	.	4G\	no-	.	4G/	no-	.	.	.	.	.	.	.	4g\	no-	.	4g/	no-	.	2.r	.	.	.	.	.	.	.	.	.
8BB-\|	.	.	8B-'/	.	8B-'/	.	.	.	.	.	.	.	.	.	.	.	.	.	.	.	.	.	.	.	.	.	.	.	.	.	.	.	.	.
8E-\|	.	.	8e-'/	.	8e-'/	.	4E-X\	-bis	.	4E-X/	-bis	.	.	.	.	.	.	.	4e-X\	-bis	.	4e-X/	-bis	.	.	.	.	.	.	.	.	.	.	.
8D\|	.	.	8d'/	.	8d'/	.	.	.	.	.	.	.	.	.	.	.	.	.	.	.	.	.	.	.	.	.	.	.	.	.	.	.	.	.
8C\|	.	.	8c'/	.	8c'/	.	4r	.	.	4r	.	.	.	.	.	.	.	.	4r	.	.	4r	.	.	.	.	.	.	.	.	.	.	.	.
8BBn\J|	.	.	8Bn'/J	.	8Bn'/J	.	.	.	.	.	.	.	.	.	.	.	.	.	.	.	.	.	.	.	.	.	.	.	.	.	.	.	.	.
!LO:LB:g=original	!	!	!LO:LB:g=original	!	!LO:LB:g=original	!	!LO:LB:g=original	!	!	!	!	!	!	!	!	!	!	!	!	!	!	!LO:LB:g=original	!	!	!	!	!	!	!	!	!	!	!	!
=41	=41	=41	=41	=41	=41	=41	=41	=41	=41	=41	=41	=41	=41	=41	=41	=41	=41	=41	=41	=41	=41	=41	=41	=41	=41	=41	=41	=41	=41	=41	=41	=41	=41	=41
8C/L|	.	.	8c'/L	.	8c'/L	.	4r	.	.	4r	.	.	4r	.	.	4r	.	.	4r	.	.	4r	.	.	2.r	.	.	.	.	.	.	.	.	.
8BBn/|	.	.	8Bn'/	.	8Bn'/	.	.	.	.	.	.	.	.	.	.	.	.	.	.	.	.	.	.	.	.	.	.	.	.	.	.	.	.	.
8C/|	.	.	8c'/	.	8c'/	.	4r	.	.	4r	.	.	4r	.	.	4r	.	.	4r	.	.	4r	.	.	.	.	.	.	.	.	.	.	.	.
8D/|	.	.	8d'/	.	8d'/	.	.	.	.	.	.	.	.	.	.	.	.	.	.	.	.	.	.	.	.	.	.	.	.	.	.	.	.	.
8E-X/|	.	.	8e-X'/	.	8e-X'/	.	4E-X\	Re-	.	4E-X/	Re-	.	4e-X\	Re-	.	4e-X/	Re-	.	4e-X\	Re-	.	4e-X/	Re-	.	.	.	.	.	.	.	.	.	.	.
8D/J|	.	.	8d'/J	.	8d'/J	.	.	.	.	.	.	.	.	.	.	.	.	.	.	.	.	.	.	.	.	.	.	.	.	.	.	.	.	.
!	!	!	!	!	!	!	!	!	!	!LO:LB:g=original	!	!	!	!	!	!	!	!	!	!	!	!	!	!	!	!	!	!	!	!	!	!	!	!
=42	=42	=42	=42	=42	=42	=42	=42	=42	=42	=42	=42	=42	=42	=42	=42	=42	=42	=42	=42	=42	=42	=42	=42	=42	=42	=42	=42	=42	=42	=42	=42	=42	=42	=42
8C/L|	.	.	8c'/L	.	8c'/L	.	2E-X\	-gi-	.	2E-X/	-gi-	.	2e-X\	-gi-	.	2e-X/	-gi-	.	2e-X\	-gi-	.	2e-X/	-gi-	.	2.r	.	0.r	.	.	.	.	.	.	.
8BBn/|	.	.	8Bn'/	.	8Bn'/	.	.	.	.	.	.	.	.	.	.	.	.	.	.	.	.	.	.	.	.	.	.	.	.	.	.	.	.	.
8C/|	.	.	8c'/	.	8c'/	.	.	.	.	.	.	.	.	.	.	.	.	.	.	.	.	.	.	.	.	.	.	.	.	.	.	.	.	.
8D/|	.	.	8d'/	.	8d'/	.	.	.	.	.	.	.	.	.	.	.	.	.	.	.	.	.	.	.	.	.	.	.	.	.	.	.	.	.
8E-X/|	.	.	8e-X'/	.	8e-X'/	.	4E-\	-na	.	4E-/	-na	.	4e-\	-na	.	4e-/	-na	.	4e-\	-na	.	4e-/	-na	.	.	.	.	.	.	.	.	.	.	.
8C/J|	.	.	8c'/J	.	8c'/J	.	.	.	.	.	.	.	.	.	.	.	.	.	.	.	.	.	.	.	.	.	.	.	.	.	.	.	.	.
=43	=43	=43	=43	=43	=43	=43	=43	=43	=43	=43	=43	=43	=43	=43	=43	=43	=43	=43	=43	=43	=43	=43	=43	=43	=43	=43	=43	=43	=43	=43	=43	=43	=43	=43
8BBn/L|	.	.	8Bn/L	.	8Bn/L	.	2.G\	Vir-	.	2.G/	Vir-	.	2.g\	Vir-	.	2.g/	Vir-	.	2.g\	Vir-	.	2.g/	Vir-	.	2.r	.	.	.	2.r	.	2.r	.	2.r	.
8AA/|	.	.	8A/	.	8A/	.	.	.	.	.	.	.	.	.	.	.	.	.	.	.	.	.	.	.	.	.	.	.	.	.	.	.	.	.
8BB/|	.	.	8B/	.	8B/	.	.	.	.	.	.	.	.	.	.	.	.	.	.	.	.	.	.	.	.	.	.	.	.	.	.	.	.	.
8GG/|	.	.	8G/	.	8G/	.	.	.	.	.	.	.	.	.	.	.	.	.	.	.	.	.	.	.	.	.	.	.	.	.	.	.	.	.
8AA/|	.	.	8A/	.	8A/	.	.	.	.	.	.	.	.	.	.	.	.	.	.	.	.	.	.	.	.	.	.	.	.	.	.	.	.	.
8BB/J|	.	.	8B/J	.	8B/J	.	.	.	.	.	.	.	.	.	.	.	.	.	.	.	.	.	.	.	.	.	.	.	.	.	.	.	.	.
=44	=44	=44	=44	=44	=44	=44	=44	=44	=44	=44	=44	=44	=44	=44	=44	=44	=44	=44	=44	=44	=44	=44	=44	=44	=44	=44	=44	=44	=44	=44	=44	=44	=44	=44
8C/L|	.	.	8c'/L	.	8c'/L	.	4E-X\	-gi-	.	4E-X/	-gi-	.	4e-X\	-gi-	.	4e-X/	-gi-	.	4e-X\	-gi-	.	4e-X/	-gi-	.	2.r	.	.	.	4r	.	4r	.	4r	.
8BBn/|	.	.	8Bn'/	.	8Bn'/	.	.	.	.	.	.	.	.	.	.	.	.	.	.	.	.	.	.	.	.	.	.	.	.	.	.	.	.	.
8C/|	.	.	8c'/	.	8c'/	.	4C/	-num	.	4C/	-num	.	4c\	-num	.	4c/	-num	.	4c\	-num	.	4c/	-num	.	.	.	.	.	4r	.	4r	.	4r	.
8D/|	.	.	8d'/	.	8d'/	.	.	.	.	.	.	.	.	.	.	.	.	.	.	.	.	.	.	.	.	.	.	.	.	.	.	.	.	.
!	!	!	!	!	!	!	!	!	!	!	!	!	!LO:TX:a:t=Solo	!	!	!LO:TX:a:t=Solo	!	!	!	!	!	!	!	!	!	!	!	!	!	!	!	!	!	!
8E-X/|	.	.	8e-X'/	.	8e-X'/	.	4r	.	.	4r	.	.	4e-\	o-	.	4e-/	o-	.	4r	.	.	4r	.	.	.	.	.	.	4e-X\	.	4e-/	.	4ee-\	.
8C/J|	.	.	8c'/J	.	8c'/J	.	.	.	.	.	.	.	.	.	.	.	.	.	.	.	.	.	.	.	.	.	.	.	.	.	.	.	.	.
!	!	!	!	!	!	!	!	!	!	!	!	!	!	!	!	!	!	!	!	!	!	!	!	!	!	!	!	!	!	!	!	!	!LO:LB:g=original	!
=45	=45	=45	=45	=45	=45	=45	=45	=45	=45	=45	=45	=45	=45	=45	=45	=45	=45	=45	=45	=45	=45	=45	=45	=45	=45	=45	=45	=45	=45	=45	=45	=45	=45	=45
!	!	!	!	!	!	!	!LO:TX:a:t=1	!	!	!LO:TX:a:t=1	!	!	!	!	!	!	!	!	!LO:TX:a:t=1	!	!	!LO:TX:a:t=1	!	!	!	!	!	!	!	!	!	!	!	!
8BBn/L|	.	.	8Bn'/L	.	8Bn'/L	.	2.r	.	.	2.r	.	.	2g\	-ra	.	2g/	-ra	.	2.r	.	.	2.r	.	.	2.r	.	.	.	2g\	.	2g/	.	2gg\	.
8AA/|	.	.	8A'/	.	8A'/	.	.	.	.	.	.	.	.	.	.	.	.	.	.	.	.	.	.	.	.	.	.	.	.	.	.	.	.	.
8BB/|	.	.	8B'/	.	8B'/	.	.	.	.	.	.	.	.	.	.	.	.	.	.	.	.	.	.	.	.	.	.	.	.	.	.	.	.	.
8GG/|	.	.	8G'/	.	8G'/	.	.	.	.	.	.	.	.	.	.	.	.	.	.	.	.	.	.	.	.	.	.	.	.	.	.	.	.	.
8AA/|	.	.	8A'/	.	8A'/	.	.	.	.	.	.	.	4g\	pro	.	4g/	pro	.	.	.	.	.	.	.	.	.	.	.	4g\	.	4g/	.	4gg\	.
8BB/J|	.	.	8B'/J	.	8B'/J	.	.	.	.	.	.	.	.	.	.	.	.	.	.	.	.	.	.	.	.	.	.	.	.	.	.	.	.	.
!	!	!	!	!	!LO:LB:g=original	!	!	!	!	!	!	!	!LO:LB:g=original	!	!	!	!	!	!	!	!	!	!	!	!	!	!	!	!	!	!	!	!	!
=46	=46	=46	=46	=46	=46	=46	=46	=46	=46	=46	=46	=46	=46	=46	=46	=46	=46	=46	=46	=46	=46	=46	=46	=46	=46	=46	=46	=46	=46	=46	=46	=46	=46	=46
8C/L|	.	.	8c'/L	.	8c'/L	.	4r	.	.	4r	.	.	4e-X\	no-	.	4e-X/	no-	.	4r	.	.	4r	.	.	2.r	.	0.r	.	4e-X\	.	4e-/	.	4ee-\	.
8BBn/|	.	.	8Bn'/	.	8Bn'/	.	.	.	.	.	.	.	.	.	.	.	.	.	.	.	.	.	.	.	.	.	.	.	.	.	.	.	.	.
8C/|	.	.	8c'/	.	8c'/	.	4r	.	.	4r	.	.	4c\	-bis	.	4c/	-bis	.	4r	.	.	4r	.	.	.	.	.	.	4c/	.	4c/	.	4cc\	.
8D/|	.	.	8d'/	.	8d'/	.	.	.	.	.	.	.	.	.	.	.	.	.	.	.	.	.	.	.	.	.	.	.	.	.	.	.	.	.
8E-X/|	.	.	8e-X'/	.	8e-X'/	.	4E-X\	o-	.	4E-X/	o-	.	4r	.	.	4r	.	.	4e-X\	o-	.	4e-X/	o-	.	.	.	.	.	4r	.	4r	.	4r	.
8C/J|	.	.	8c'/J	.	8c'/J	.	.	.	.	.	.	.	.	.	.	.	.	.	.	.	.	.	.	.	.	.	.	.	.	.	.	.	.	.
!LO:LB:g=original	!	!	!	!	!	!	!	!	!	!	!	!	!	!	!	!	!	!	!LO:LB:g=original	!	!	!	!	!	!	!	!	!	!	!	!	!	!	!
=47	=47	=47	=47	=47	=47	=47	=47	=47	=47	=47	=47	=47	=47	=47	=47	=47	=47	=47	=47	=47	=47	=47	=47	=47	=47	=47	=47	=47	=47	=47	=47	=47	=47	=47
!	!	!	!	!	!	!	!	!	!	!	!	!	!LO:TX:a:t=2.	!	!	!LO:TX:a:t=2	!	!	!	!	!	!	!	!	!	!	!	!	!LO:TX:a:t=13.	!	!LO:TX:a:t=5	!	!LO:TX:a:t=5.	!
8BBn/L|	.	.	8Bn'/L	.	8Bn'/L	.	2G\	-ra	.	2G/	-ra	.	1.r	.	.	1.r	.	.	2g\	-ra	.	2g/	-ra	.	2.r	.	.	.	0.r	.	0.r	.	0.r	.
8AA/|	.	.	8A'/	.	8A'/	.	.	.	.	.	.	.	.	.	.	.	.	.	.	.	.	.	.	.	.	.	.	.	.	.	.	.	.	.
8BB/|	.	.	8B'/	.	8B'/	.	.	.	.	.	.	.	.	.	.	.	.	.	.	.	.	.	.	.	.	.	.	.	.	.	.	.	.	.
8GG/|	.	.	8G'/	.	8G'/	.	.	.	.	.	.	.	.	.	.	.	.	.	.	.	.	.	.	.	.	.	.	.	.	.	.	.	.	.
8AA/|	.	.	8A'/	.	8A'/	.	4G\	pro	.	4G/	pro	.	.	.	.	.	.	.	4g\	pro	.	4g/	pro	.	.	.	.	.	.	.	.	.	.	.
8BB/J|	.	.	8B'/J	.	8B'/J	.	.	.	.	.	.	.	.	.	.	.	.	.	.	.	.	.	.	.	.	.	.	.	.	.	.	.	.	.
!	!	!	!LO:LB:g=original	!	!	!	!	!	!	!	!	!	!	!	!	!	!	!	!	!	!	!	!	!	!	!	!	!	!	!	!	!	!	!
=48	=48	=48	=48	=48	=48	=48	=48	=48	=48	=48	=48	=48	=48	=48	=48	=48	=48	=48	=48	=48	=48	=48	=48	=48	=48	=48	=48	=48	=48	=48	=48	=48	=48	=48
8C/L|	.	.	8c'/L	.	8c/L	.	4E-X\	no-	.	4E-X/	no-	.	.	.	.	.	.	.	4e-X\	no-	.	4e-X/	no-	.	2.r	.	.	.	.	.	.	.	.	.
8GG/|	.	.	8G'/	.	8G/	.	.	.	.	.	.	.	.	.	.	.	.	.	.	.	.	.	.	.	.	.	.	.	.	.	.	.	.	.
8C/|	.	.	8c'/	.	8c/	.	4C/	-bis	.	4C/	-bis	.	.	.	.	.	.	.	4c\	-bis	.	4c/	-bis	.	.	.	.	.	.	.	.	.	.	.
8BB-X/|	.	.	8B-X'/	.	8B-X/	.	.	.	.	.	.	.	.	.	.	.	.	.	.	.	.	.	.	.	.	.	.	.	.	.	.	.	.	.
8AA-X/|	.	.	8A-X'/	.	8A-X/	.	4r	.	.	4r	.	.	.	.	.	.	.	.	4r	.	.	4r	.	.	.	.	.	.	.	.	.	.	.	.
8GG/J|	.	.	8G'/J	.	8G/J	.	.	.	.	.	.	.	.	.	.	.	.	.	.	.	.	.	.	.	.	.	.	.	.	.	.	.	.	.
!	!	!	!	!	!	!	!LO:LB:g=original	!	!	!	!	!	!	!	!	!	!	!	!	!	!	!LO:LB:g=original	!	!	!	!	!	!	!	!	!	!	!	!
=49	=49	=49	=49	=49	=49	=49	=49	=49	=49	=49	=49	=49	=49	=49	=49	=49	=49	=49	=49	=49	=49	=49	=49	=49	=49	=49	=49	=49	=49	=49	=49	=49	=49	=49
8A-X\L|	.	.	8a-X'/L	.	8a-X'/L	.	4r	.	.	4r	.	.	4r	.	.	4r	.	.	4r	.	.	4r	.	.	2.r	.	.	.	.	.	.	.	.	.
8G\|	.	.	8g'/	.	8g'/	.	.	.	.	.	.	.	.	.	.	.	.	.	.	.	.	.	.	.	.	.	.	.	.	.	.	.	.	.
8A-\|	.	.	8a-'/	.	8a-'/	.	4r	.	.	4r	.	.	4r	.	.	4r	.	.	4r	.	.	4r	.	.	.	.	.	.	.	.	.	.	.	.
8B-\|	.	.	8b-'/	.	8b-'/	.	.	.	.	.	.	.	.	.	.	.	.	.	.	.	.	.	.	.	.	.	.	.	.	.	.	.	.	.
8c\|	.	.	8cc'/	.	8cc'/	.	4c\	Re-	.	4c\	Re-	.	4cc\	Re-	.	4cc\	Re-	.	4cc\	Re-	.	4cc\	Re-	.	.	.	.	.	.	.	.	.	.	.
8B-\J|	.	.	8b-'/J	.	8b-'/J	.	.	.	.	.	.	.	.	.	.	.	.	.	.	.	.	.	.	.	.	.	.	.	.	.	.	.	.	.
!	!	!	!	!	!	!	!	!	!	!LO:LB:g=original	!	!	!	!	!	!LO:LB:g=original	!	!	!	!	!	!	!	!	!	!	!	!	!	!	!	!	!	!
=50	=50	=50	=50	=50	=50	=50	=50	=50	=50	=50	=50	=50	=50	=50	=50	=50	=50	=50	=50	=50	=50	=50	=50	=50	=50	=50	=50	=50	=50	=50	=50	=50	=50	=50
8A-X\L|	.	.	8a-X'/L	.	8a-X'/L	.	2c\	-gi-	.	2c\	-gi-	.	2cc\	-gi-	.	2cc\	-gi-	.	2cc\	-gi-	.	2cc\	-gi-	.	2.r	.	0.r	.	.	.	.	.	.	.
8G\|	.	.	8g'/	.	8g'/	.	.	.	.	.	.	.	.	.	.	.	.	.	.	.	.	.	.	.	.	.	.	.	.	.	.	.	.	.
8A-\|	.	.	8a-'/	.	8a-'/	.	.	.	.	.	.	.	.	.	.	.	.	.	.	.	.	.	.	.	.	.	.	.	.	.	.	.	.	.
8B-\|	.	.	8b-'/	.	8b-'/	.	.	.	.	.	.	.	.	.	.	.	.	.	.	.	.	.	.	.	.	.	.	.	.	.	.	.	.	.
8c\|	.	.	8cc'/	.	8cc'/	.	4c\	-na	.	4c\	-na	.	4cc\	-na	.	4cc\	-na	.	4cc\	-na	.	4cc\	-na	.	.	.	.	.	.	.	.	.	.	.
8A-\J|	.	.	8a-'/J	.	8a-'/J	.	.	.	.	.	.	.	.	.	.	.	.	.	.	.	.	.	.	.	.	.	.	.	.	.	.	.	.	.
=51	=51	=51	=51	=51	=51	=51	=51	=51	=51	=51	=51	=51	=51	=51	=51	=51	=51	=51	=51	=51	=51	=51	=51	=51	=51	=51	=51	=51	=51	=51	=51	=51	=51	=51
8G\L|	.	.	8g'/L	.	8g'/L	.	4e-X\	San-	.	4e-X\	San-	.	4ee-X\	San-	.	4ee-X\	San-	.	4ee-X\	San-	.	4ee-X\	San-	.	2.r	.	.	.	0.r	.	2.r	.	2.r	.
8F\|	.	.	8f'/	.	8f'/	.	.	.	.	.	.	.	.	.	.	.	.	.	.	.	.	.	.	.	.	.	.	.	.	.	.	.	.	.
8G\|	.	.	8g'/	.	8g'/	.	4e-\	-cto-	.	4e-\	-cto-	.	4ee-\	-cto-	.	4ee-\	-cto-	.	4ee-\	-cto-	.	4ee-\	-cto-	.	.	.	.	.	.	.	.	.	.	.
8E-X\|	.	.	8e-X'/	.	8e-X'/	.	.	.	.	.	.	.	.	.	.	.	.	.	.	.	.	.	.	.	.	.	.	.	.	.	.	.	.	.
8F\|	.	.	8f'/	.	8f'/	.	4e-\	-rum	.	4e-\	-rum	.	4ee-\	-rum	.	4ee-\	-rum	.	4ee-\	-rum	.	4ee-\	-rum	.	.	.	.	.	.	.	.	.	.	.
8G\J|	.	.	8g'/J	.	8g'/J	.	.	.	.	.	.	.	.	.	.	.	.	.	.	.	.	.	.	.	.	.	.	.	.	.	.	.	.	.
!LO:LB:g=original	!	!	!	!	!LO:LB:g=original	!	!	!	!	!	!	!	!	!	!	!	!	!	!	!	!	!	!	!	!	!	!	!	!	!	!	!	!	!
=52	=52	=52	=52	=52	=52	=52	=52	=52	=52	=52	=52	=52	=52	=52	=52	=52	=52	=52	=52	=52	=52	=52	=52	=52	=52	=52	=52	=52	=52	=52	=52	=52	=52	=52
8A-X\L|	.	.	8a-X'/L	.	8a-X'/L	.	8c\	o-	.	8c\	o-	.	8cc\	o-	.	8cc\	o-	.	8cc\	o-	.	8cc\	o-	.	2.r	.	.	.	.	.	4r	.	4r	.
8G\|	.	.	8g'/	.	8g'/	.	8c\	-mni-	.	8c\	-mni-	.	8cc\	-mni-	.	8cc\	-mni-	.	8cc\	-mni-	.	8cc\	-mni-	.	.	.	.	.	.	.	.	.	.	.
!	!	!	!	!	!	!	!	!	!	!	!	!	!	!	!	!LO:TX:a:t=Solo	!	!	!	!	!	!	!	!	!	!	!	!	!	!	!	!	!	!
8A-\|	.	.	8a-'/	.	8a-'/	.	4A-X\	-um	.	4A-X\	-um	.	4a-X\	-um	.	4a-X\	-um	.	4a-X\	-um	.	4a-X\	-um	.	.	.	.	.	.	.	4r	.	4r	.
8B-\|	.	.	8b-'/	.	8b-'/	.	.	.	.	.	.	.	.	.	.	.	.	.	.	.	.	.	.	.	.	.	.	.	.	.	.	.	.	.
!	!	!	!	!	!	!	!	!	!	!	!	!	!LO:TX:a:t=Solo	!	!	!	!	!	!	!	!	!	!	!	!	!	!	!	!	!	!	!	!	!
8c\|	.	.	8cc'/	.	8cc'/	.	4r	.	.	4r	.	.	4cc\	o-	.	4cc\	o-	.	4r	.	.	4r	.	.	.	.	.	.	.	.	4cc\	.	4cc\	.
8A-\J|	.	.	8a-'/J	.	8a-'/J	.	.	.	.	.	.	.	.	.	.	.	.	.	.	.	.	.	.	.	.	.	.	.	.	.	.	.	.	.
=53	=53	=53	=53	=53	=53	=53	=53	=53	=53	=53	=53	=53	=53	=53	=53	=53	=53	=53	=53	=53	=53	=53	=53	=53	=53	=53	=53	=53	=53	=53	=53	=53	=53	=53
!	!	!	!	!	!	!	!LO:TX:a:t=1	!	!	!LO:TX:a:t=1	!	!	!	!	!	!	!	!	!LO:TX:a:t=1	!	!	!LO:TX:a:t=1	!	!	!	!	!	!	!	!	!	!	!	!
8G\L|	.	.	8g'/L	.	8g'/L	.	2.r	.	.	2.r	.	.	2ee-X\	-ra	.	2ee-X\	-ra	.	2.r	.	.	2.r	.	.	2.r	.	.	.	.	.	2ee-\	.	2ee-\	.
8F\|	.	.	8f'/	.	8f'/	.	.	.	.	.	.	.	.	.	.	.	.	.	.	.	.	.	.	.	.	.	.	.	.	.	.	.	.	.
8G\|	.	.	8g'/	.	8g'/	.	.	.	.	.	.	.	.	.	.	.	.	.	.	.	.	.	.	.	.	.	.	.	.	.	.	.	.	.
8E-X\|	.	.	8e-X'/	.	8e-X'/	.	.	.	.	.	.	.	.	.	.	.	.	.	.	.	.	.	.	.	.	.	.	.	.	.	.	.	.	.
8F\|	.	.	8f'/	.	8f'/	.	.	.	.	.	.	.	4ee-\	pro	.	4ee-\	pro	.	.	.	.	.	.	.	.	.	.	.	.	.	4ee-\	.	4ee-\	.
8G\J|	.	.	8g'/J	.	8g'/J	.	.	.	.	.	.	.	.	.	.	.	.	.	.	.	.	.	.	.	.	.	.	.	.	.	.	.	.	.
!	!	!	!	!	!	!	!	!	!	!	!	!	!LO:LB:g=original	!	!	!	!	!	!	!	!	!	!	!	!	!	!	!	!	!	!	!	!	!
=54	=54	=54	=54	=54	=54	=54	=54	=54	=54	=54	=54	=54	=54	=54	=54	=54	=54	=54	=54	=54	=54	=54	=54	=54	=54	=54	=54	=54	=54	=54	=54	=54	=54	=54
8A-X\L|	.	.	8a-X'/L	.	8a-X'/L	.	4r	.	.	4r	.	.	4cc\	no-	.	4cc\	no-	.	4r	.	.	4r	.	.	2.r	.	0.r	.	.	.	4cc\	.	4cc\	.
8G\|	.	.	8g'/	.	8g'/	.	.	.	.	.	.	.	.	.	.	.	.	.	.	.	.	.	.	.	.	.	.	.	.	.	.	.	.	.
8A-\|	.	.	8a-'/	.	8a-'/	.	4r	.	.	4r	.	.	4a-X\	-bis	.	4a-X\	-bis	.	4r	.	.	4r	.	.	.	.	.	.	.	.	4a-X\	.	4a-X\	.
8B-\|	.	.	8b-'/	.	8b-'/	.	.	.	.	.	.	.	.	.	.	.	.	.	.	.	.	.	.	.	.	.	.	.	.	.	.	.	.	.
8c\|	.	.	8cc'/	.	8cc'/	.	4c\	o-	.	4c\	o-	.	4r	.	.	4r	.	.	4cc\	o-	.	4cc\	o-	.	.	.	.	.	.	.	4r	.	4r	.
8A-\J|	.	.	8a-'/J	.	8a-'/J	.	.	.	.	.	.	.	.	.	.	.	.	.	.	.	.	.	.	.	.	.	.	.	.	.	.	.	.	.
!	!	!	!LO:LB:g=original	!	!	!	!	!	!	!	!	!	!	!	!	!	!	!	!LO:LB:g=original	!	!	!	!	!	!	!	!	!	!	!	!	!	!	!
=55	=55	=55	=55	=55	=55	=55	=55	=55	=55	=55	=55	=55	=55	=55	=55	=55	=55	=55	=55	=55	=55	=55	=55	=55	=55	=55	=55	=55	=55	=55	=55	=55	=55	=55
!	!	!	!	!	!	!	!	!	!	!	!	!	!LO:TX:a:t=2.	!	!	!LO:TX:a:t=2.	!	!	!	!	!	!	!	!	!	!	!	!	!	!	!LO:TX:a:t=5	!	!LO:TX:a:t=5.	!
8G\L|	.	.	8g'/L	.	8g'/L	.	2e-X\	-ra	.	2e-X\	-ra	.	1.r	.	.	1.r	.	.	2ee-X\	-ra	.	2ee-X\	-ra	.	2.r	.	.	.	0.r	.	0.r	.	0.r	.
8F\|	.	.	8f'/	.	8f'/	.	.	.	.	.	.	.	.	.	.	.	.	.	.	.	.	.	.	.	.	.	.	.	.	.	.	.	.	.
8G\|	.	.	8g'/	.	8g'/	.	.	.	.	.	.	.	.	.	.	.	.	.	.	.	.	.	.	.	.	.	.	.	.	.	.	.	.	.
8E-X\|	.	.	8e-X'/	.	8e-X'/	.	.	.	.	.	.	.	.	.	.	.	.	.	.	.	.	.	.	.	.	.	.	.	.	.	.	.	.	.
8F\|	.	.	8f'/	.	8f'/	.	4e-\	pro	.	4e-\	pro	.	.	.	.	.	.	.	4ee-\	pro	.	4ee-\	pro	.	.	.	.	.	.	.	.	.	.	.
8G\J|	.	.	8g'/J	.	8g'/J	.	.	.	.	.	.	.	.	.	.	.	.	.	.	.	.	.	.	.	.	.	.	.	.	.	.	.	.	.
!	!	!	!	!	!	!	!LO:LB:g=original	!	!	!	!	!	!	!	!	!	!	!	!	!	!	!LO:LB:g=original	!	!	!	!	!	!	!	!	!	!	!	!
=56	=56	=56	=56	=56	=56	=56	=56	=56	=56	=56	=56	=56	=56	=56	=56	=56	=56	=56	=56	=56	=56	=56	=56	=56	=56	=56	=56	=56	=56	=56	=56	=56	=56	=56
8A-X\L|	.	.	8a-X'/L	.	8a-X'/L	.	4c\	no-	.	4c\	no-	.	.	.	.	.	.	.	4cc\	no-	.	4cc\	no-	.	2.r	.	.	.	.	.	.	.	.	.
8E-X\|	.	.	8e-X'/	.	8e-X'/	.	.	.	.	.	.	.	.	.	.	.	.	.	.	.	.	.	.	.	.	.	.	.	.	.	.	.	.	.
8A-\|	.	.	8a-'/	.	8a-'/	.	4A-X\	-bis	.	4A-X\	-bis	.	.	.	.	.	.	.	4a-X\	-bis	.	4a-X\	-bis	.	.	.	.	.	.	.	.	.	.	.
8G\|	.	.	8g'/	.	8g'/	.	.	.	.	.	.	.	.	.	.	.	.	.	.	.	.	.	.	.	.	.	.	.	.	.	.	.	.	.
8F\|	.	.	8f'/	.	8f'/	.	4r	.	.	4r	.	.	.	.	.	.	.	.	4r	.	.	4r	.	.	.	.	.	.	.	.	.	.	.	.
!LO:TX:b:i:t=Volti Cito	!	!	!	!	!	!	!	!	!	!	!	!	!	!	!	!	!	!	!	!	!	!	!	!	!	!	!	!	!	!	!	!	!	!
8En\J|	.	.	8en'/J	.	8en'/J	.	.	.	.	.	.	.	.	.	.	.	.	.	.	.	.	.	.	.	.	.	.	.	.	.	.	.	.	.
!LO:PB:g=original	!	!	!	!	!LO:LB:g=original	!	!	!	!	!LO:LB:g=original	!	!	!	!	!	!	!	!	!	!	!	!	!	!	!	!	!	!	!	!	!	!	!	!
=57	=57	=57	=57	=57	=57	=57	=57	=57	=57	=57	=57	=57	=57	=57	=57	=57	=57	=57	=57	=57	=57	=57	=57	=57	=57	=57	=57	=57	=57	=57	=57	=57	=57	=57
8F\L|	.	.	8f'/L	.	8f'/L	.	4r	.	.	4r	.	.	4r	.	.	4r	.	.	4r	.	.	4r	.	.	2.r	.	.	.	.	.	.	.	.	.
8E\|	.	.	8e'/	.	8en'/	.	.	.	.	.	.	.	.	.	.	.	.	.	.	.	.	.	.	.	.	.	.	.	.	.	.	.	.	.
8F\|	.	.	8f'/	.	8f'/	.	4r	.	.	4r	.	.	4r	.	.	4r	.	.	4r	.	.	4r	.	.	.	.	.	.	.	.	.	.	.	.
8G\|	.	.	8g'/	.	8g'/	.	.	.	.	.	.	.	.	.	.	.	.	.	.	.	.	.	.	.	.	.	.	.	.	.	.	.	.	.
8A-X\|	.	.	8a-X'/	.	8a-X'/	.	4A-X\	Re-	.	4A-X\	Re-	.	4a-X\	Re-	.	4a-X\	Re-	.	4a-X\	Re-	.	4a-X\	Re-	.	.	.	.	.	.	.	.	.	.	.
8G\J|	.	.	8g'/J	.	8g'/J	.	.	.	.	.	.	.	.	.	.	.	.	.	.	.	.	.	.	.	.	.	.	.	.	.	.	.	.	.
=58	=58	=58	=58	=58	=58	=58	=58	=58	=58	=58	=58	=58	=58	=58	=58	=58	=58	=58	=58	=58	=58	=58	=58	=58	=58	=58	=58	=58	=58	=58	=58	=58	=58	=58
8F\L|	.	.	8f'/L	.	8f'/L	.	2A-X\	-gi-	.	2A-X\	-gi-	.	2a-X\	-gi-	.	2a-X\	-gi-	.	2a-X\	-gi-	.	2a-X\	-gi-	.	2.r	.	1.r	.	.	.	.	.	.	.
8E\|	.	.	8e'/	.	8e'/	.	.	.	.	.	.	.	.	.	.	.	.	.	.	.	.	.	.	.	.	.	.	.	.	.	.	.	.	.
8F\|	.	.	8f'/	.	8f'/	.	.	.	.	.	.	.	.	.	.	.	.	.	.	.	.	.	.	.	.	.	.	.	.	.	.	.	.	.
8G\|	.	.	8g'/	.	8g'/	.	.	.	.	.	.	.	.	.	.	.	.	.	.	.	.	.	.	.	.	.	.	.	.	.	.	.	.	.
8A-X\|	.	.	8a-X'/	.	8a-X'/	.	4A-\	-na	.	4A-\	-na	.	4a-\	-na	.	4a-\	-na	.	4a-\	-na	.	4a-\	-na	.	.	.	.	.	.	.	.	.	.	.
8F\J|	.	.	8f'/J	.	8f'/J	.	.	.	.	.	.	.	.	.	.	.	.	.	.	.	.	.	.	.	.	.	.	.	.	.	.	.	.	.
!	!	!	!	!	!	!	!	!	!	!	!	!	!	!	!	!LO:LB:g=original	!	!	!	!	!	!	!	!	!	!	!	!	!	!	!	!	!	!
=59	=59	=59	=59	=59	=59	=59	=59	=59	=59	=59	=59	=59	=59	=59	=59	=59	=59	=59	=59	=59	=59	=59	=59	=59	=59	=59	=59	=59	=59	=59	=59	=59	=59	=59
8E\L|	.	.	8e'/L	.	8en'/L	.	2c\	Con-	.	2c\	Con-	.	2cc\	Con-	.	2cc\	Con-	.	2cc\	Con-	.	2cc\	Con-	.	2.r	.	.	.	2.r	.	2.r	.	2.r	.
8Dn\|	.	.	8dn'/	.	8dn'/	.	.	.	.	.	.	.	.	.	.	.	.	.	.	.	.	.	.	.	.	.	.	.	.	.	.	.	.	.
8E\|	.	.	8e'/	.	8e'/	.	.	.	.	.	.	.	.	.	.	.	.	.	.	.	.	.	.	.	.	.	.	.	.	.	.	.	.	.
8C\|	.	.	8c'/	.	8c'/	.	.	.	.	.	.	.	.	.	.	.	.	.	.	.	.	.	.	.	.	.	.	.	.	.	.	.	.	.
8D\|	.	.	8d'/	.	8d'/	.	4c\	-fes-	.	4c\	-fes-	.	4cc\	-fes-	.	4cc\	-fes-	.	4cc\	-fes-	.	4cc\	-fes-	.	.	.	.	.	.	.	.	.	.	.
8E\J|	.	.	8e'/J	.	8e'/J	.	.	.	.	.	.	.	.	.	.	.	.	.	.	.	.	.	.	.	.	.	.	.	.	.	.	.	.	.
=60	=60	=60	=60	=60	=60	=60	=60	=60	=60	=60	=60	=60	=60	=60	=60	=60	=60	=60	=60	=60	=60	=60	=60	=60	=60	=60	=60	=60	=60	=60	=60	=60	=60	=60
!	!	!	!	!	!	!	!	!	!	!LO:TX:a:t=a	!	!	!	!	!	!	!	!	!	!	!	!	!	!	!	!	!	!	!	!	!	!	!	!
8F\L|	.	.	8f'/L	.	8f'/L	.	4An\	-ſo-	.	4An\	-ſo-	.	4an\	-ſo-	.	4an\	-ſo-	.	4an\	-ſo-	.	4an\	-ſo-	.	2.r	.	4r	.	4r	.	4r	.	4r	.
8E\|	.	.	8e'/	.	8e'/	.	.	.	.	.	.	.	.	.	.	.	.	.	.	.	.	.	.	.	.	.	.	.	.	.	.	.	.	.
!	!	!	!	!	!	!	!	!	!	!	!	!	!LO:TX:a:t=Solo	!	!	!	!	!	!	!	!	!	!	!	!	!	!	!LO:DY:t=p	!	!	!	!	!	!
8F\|	.	.	8f'/	.	8f'/	.	4F\	-rum	.	4F/	-rum	.	4f\	-rum	.	4f/	-rum	.	4f\	-rum	.	4f/	-rum	.	.	.	4r	p	4r	.	4r	.	4r	.
8G\|	.	.	8g'/	.	8g'/	.	.	.	.	.	.	.	.	.	.	.	.	.	.	.	.	.	.	.	.	.	.	.	.	.	.	.	.	.
8An\|	.	.	8an'/	.	8an'/	.	4r	.	.	4r	.	.	4a\	o-	.	4a\	o-	.	4r	.	.	4r	.	.	.	.	4A/	.	4A/	.	4an\	.	4an\	.
8F\J|	.	.	8f'/J	.	8f'/J	.	.	.	.	.	.	.	.	.	.	.	.	.	.	.	.	.	.	.	.	.	.	.	.	.	.	.	.	.
=61	=61	=61	=61	=61	=61	=61	=61	=61	=61	=61	=61	=61	=61	=61	=61	=61	=61	=61	=61	=61	=61	=61	=61	=61	=61	=61	=61	=61	=61	=61	=61	=61	=61	=61
!	!	!	!	!	!	!	!LO:TX:a:t=1	!	!	!LO:TX:a:t=1	!	!	!	!	!	!	!	!	!LO:TX:a:t=1.	!	!	!LO:TX:a:t=1	!	!	!	!	!	!	!	!	!	!	!	!
8E\L|	.	.	8en'/L	.	8en/L	.	2.r	.	.	2.r	.	.	2cc\	-ra	.	2cc\	-ra	.	2.r	.	.	2.r	.	.	2.r	.	2c/	.	2c/	.	2cc\	.	2cc\	.
8D\|	.	.	8d'/	.	8d/	.	.	.	.	.	.	.	.	.	.	.	.	.	.	.	.	.	.	.	.	.	.	.	.	.	.	.	.	.
8E\|	.	.	8e'/	.	8e/	.	.	.	.	.	.	.	.	.	.	.	.	.	.	.	.	.	.	.	.	.	.	.	.	.	.	.	.	.
8C\|	.	.	8c'/	.	8c/	.	.	.	.	.	.	.	.	.	.	.	.	.	.	.	.	.	.	.	.	.	.	.	.	.	.	.	.	.
8D\|	.	.	8d'/	.	8d/	.	.	.	.	.	.	.	4cc\	pro	.	4cc\	pro	.	.	.	.	.	.	.	.	.	4c/	.	4c/	.	4cc\	.	4cc\	.
!	!	!	!LO:TX:b:i:t=Volti Cito	!	!	!	!	!	!	!	!	!	!	!	!	!	!	!	!	!	!	!	!	!	!	!	!	!	!	!	!	!	!	!
8E\J|	.	.	8e'/J	.	8e/J	.	.	.	.	.	.	.	.	.	.	.	.	.	.	.	.	.	.	.	.	.	.	.	.	.	.	.	.	.
!	!	!	!LO:PB:g=original	!	!LO:PB:g=original	!	!	!	!	!	!	!	!	!	!	!	!	!	!	!	!	!	!	!	!	!	!	!	!	!	!	!	!	!
=62	=62	=62	=62	=62	=62	=62	=62	=62	=62	=62	=62	=62	=62	=62	=62	=62	=62	=62	=62	=62	=62	=62	=62	=62	=62	=62	=62	=62	=62	=62	=62	=62	=62	=62
8F\L|	.	.	8f'/L	.	8f'/L	.	4r	.	.	4r	.	.	4a\	no-	.	4a\	no-	.	4r	.	.	4r	.	.	2.r	.	4A/	.	4A/	.	4a\	.	4a\	.
8E\|	.	.	8e'/	.	8e'/	.	.	.	.	.	.	.	.	.	.	.	.	.	.	.	.	.	.	.	.	.	.	.	.	.	.	.	.	.
8F\|	.	.	8f'/	.	8f'/	.	4r	.	.	4r	.	.	4f\	-bis	.	4f/	-bis	.	4r	.	.	4r	.	.	.	.	4F/	.	4F/	.	4f/	.	4f/	.
8G\|	.	.	8g'/	.	8g'/	.	.	.	.	.	.	.	.	.	.	.	.	.	.	.	.	.	.	.	.	.	.	.	.	.	.	.	.	.
8A\|	.	.	8a'/	.	8a'/	.	4An\	o-	.	4An\	o-	.	4r	.	.	4r	.	.	4an\	o-	.	4an\	o-	.	.	.	4r	.	4r	.	4r	.	4r	.
8F\J|	.	.	8f'/J	.	8f'/J	.	.	.	.	.	.	.	.	.	.	.	.	.	.	.	.	.	.	.	.	.	.	.	.	.	.	.	.	.
!	!	!	!	!	!	!	!	!	!	!	!	!	!LO:LB:g=original	!	!	!	!	!	!	!	!	!LO:LB:g=original	!	!	!	!	!	!	!LO:LB:g=original	!	!LO:LB:g=original	!	!	!
=63	=63	=63	=63	=63	=63	=63	=63	=63	=63	=63	=63	=63	=63	=63	=63	=63	=63	=63	=63	=63	=63	=63	=63	=63	=63	=63	=63	=63	=63	=63	=63	=63	=63	=63
!	!	!	!	!	!	!	!	!	!	!	!	!	!LO:TX:a:t=2.	!	!	!LO:TX:a:t=2.	!	!	!	!	!	!	!	!	!	!	!LO:TX:a:t=2	!	!LO:TX:t=P:problem=uszkodzony papier	!	!LO:TX:a:t=2.	!	!LO:TX:a:t=2	!
8E\L|	.	.	8e'/L	.	8e'/L	.	2c\	-ra	.	2c\	-ra	.	1.r	.	.	1.r	.	.	2cc\	-ra	.	2cc\	-ra	.	2.r	.	1.r	.	2.ryy	.	1.r	.	1.r	.
8D\|	.	.	8d'/	.	8d'/	.	.	.	.	.	.	.	.	.	.	.	.	.	.	.	.	.	.	.	.	.	.	.	.	.	.	.	.	.
8E\|	.	.	8e'/	.	8e'/	.	.	.	.	.	.	.	.	.	.	.	.	.	.	.	.	.	.	.	.	.	.	.	.	.	.	.	.	.
8C\|	.	.	8c'/	.	8c'/	.	.	.	.	.	.	.	.	.	.	.	.	.	.	.	.	.	.	.	.	.	.	.	.	.	.	.	.	.
8D\|	.	.	8d'/	.	8d'/	.	4c\	pro	.	4c\	pro	.	.	.	.	.	.	.	4cc\	pro	.	4cc\	pro	.	.	.	.	.	.	.	.	.	.	.
8E\J|	.	.	8e'/J	.	8e'/J	.	.	.	.	.	.	.	.	.	.	.	.	.	.	.	.	.	.	.	.	.	.	.	.	.	.	.	.	.
!LO:LB:g=original	!	!	!	!	!	!	!LO:LB:g=original	!	!	!	!	!	!	!	!	!	!	!	!LO:LB:g=original	!	!	!	!	!	!	!	!	!	!	!	!	!	!	!
=64	=64	=64	=64	=64	=64	=64	=64	=64	=64	=64	=64	=64	=64	=64	=64	=64	=64	=64	=64	=64	=64	=64	=64	=64	=64	=64	=64	=64	=64	=64	=64	=64	=64	=64
!	!	!	!	!	!	!	!	!	!	!	!	!	!	!	!	!	!	!LO:DY:b	!	!	!	!	!	!	!	!	!	!	!	!	!	!	!	!LO:DY:t=f
8F\L	.	.	8f'/L	.	8f'/L	.	4A\	no-	.	4A\	no-	.	.	.	.	.	.	f	4a\	no-	.	4a\	no-	.	2.r	.	.	f	2.ryy	.	.	.	.	f
8E\	.	.	8e'/	.	8e'/	.	.	.	.	.	.	.	.	.	.	.	.	.	.	.	.	.	.	.	.	.	.	.	.	.	.	.	.	.
8F\	.	.	8f'/	.	8f'/	.	4F\	-bis	.	4F/	-bis	.	.	.	.	.	.	.	4f\	-bis	.	4f/	-bis	.	.	.	.	.	.	.	.	.	.	.
8G\	.	.	8g'/	.	8g'/	.	.	.	.	.	.	.	.	.	.	.	.	.	.	.	.	.	.	.	.	.	.	.	.	.	.	.	.	.
8A\	.	.	8a'/	.	8a'/	.	4r	.	.	4r	.	.	.	.	.	.	.	.	4r	.	.	4r	.	.	.	.	.	.	.	.	.	.	.	.
8G\J	.	f	8g'/J	.	8g'/J	.	.	.	.	.	.	.	.	.	.	.	.	.	.	.	.	.	.	.	.	.	.	.	.	.	.	.	.	.
!	!	!	!	!	!	!	!	!	!	!LO:LB:g=original	!	!	!	!	!	!	!	!	!	!	!	!	!	!	!	!	!	!	!	!	!	!	!	!
=65	=65	=65	=65	=65	=65	=65	=65	=65	=65	=65	=65	=65	=65	=65	=65	=65	=65	=65	=65	=65	=65	=65	=65	=65	=65	=65	=65	=65	=65	=65	=65	=65	=65	=65
*	*	*	*	*	*	*	*	*	*	*	*	*	*	*	*	*	*	*	*	*	*	*	*	*	*^	*	*	*	*	*	*	*	*	*
*	*	*	*tremolo	*	*	*	*	*	*	*	*	*	*	*	*	*	*	*	*	*	*	*	*	*	*	*	*	*	*	*	*	*	*	*	*
!	!	!	!	!LO:DY:rj	!LO:TX:t=P:problem=mixed beam	!LO:DY:rj:t=f	!	!	!LO:DY:rj	!	!	!LO:DY:rj	!	!	!LO:DY:rj	!	!	!	!	!	!LO:DY:rj	!	!	!LO:DY:b:t=for.	!	!	!LO:DY:rj	!	!	!	!	!	!LO:DY:rj:t=f	!	!
4F\	8_ 3	.	16a/LL	f	16f/LL	f	4F\	o-	f	4F/	o-	f	4a\	o-	f	4ff\	o-	.	4a\	o-	f	4ff\	o-	f	4ff/	4cc\	f	2F/	.	2f\	f	4a\	f	2.ff\	.
.	.	.	16a/	.	16ff\	.	.	.	.	.	.	.	.	.	.	.	.	.	.	.	.	.	.	.	.	.	.	.	.	.	.	.	.	.	.
.	.	.	16a/	.	16ff\	.	.	.	.	.	.	.	.	.	.	.	.	.	.	.	.	.	.	.	.	.	.	.	.	.	.	.	.	.	.
.	.	.	16a/JJ	.	16ff\JJ	.	.	.	.	.	.	.	.	.	.	.	.	.	.	.	.	.	.	.	.	.	.	.	.	.	.	.	.	.	.
*	*	*	*	*	*2\right	*	*	*	*	*	*	*	*	*	*	*	*	*	*	*	*	*	*	*	*	*	*	*	*	*	*	*	*	*	*
*	*	*	*	*	*tremolo	*	*	*	*	*	*	*	*	*	*	*	*	*	*	*	*	*	*	*	*	*	*	*	*	*	*	*	*	*	*
4G\	_ 3	.	16b-/LL	.	16ff\LL	.	4G\	-ra	.	4F/	-ra	.	4b-\	-ra	.	4ff\	-ra	.	4b-\	-ra	.	4ff\	-ra	.	4r	4ryy	.	.	.	.	.	4b-\	.	.	.
.	.	.	16b-/	.	16ff\	.	.	.	.	.	.	.	.	.	.	.	.	.	.	.	.	.	.	.	.	.	.	.	.	.	.	.	.	.	.
.	.	.	16b-/	.	16ff\	.	.	.	.	.	.	.	.	.	.	.	.	.	.	.	.	.	.	.	.	.	.	.	.	.	.	.	.	.	.
.	.	.	16b-/JJ	.	16ff\	.	.	.	.	.	.	.	.	.	.	.	.	.	.	.	.	.	.	.	.	.	.	.	.	.	.	.	.	.	.
4A\	_ 3	.	16cc/LL	.	16ff\	.	4A\	pro	.	4F/	pro	.	4cc\	pro	.	4ff\	pro	.	4cc\	pro	.	4ff\	pro	.	4r	4ryy	.	4r	.	4r	.	4cc\	.	.	.
.	.	.	16cc/	.	16ff\	.	.	.	.	.	.	.	.	.	.	.	.	.	.	.	.	.	.	.	.	.	.	.	.	.	.	.	.	.	.
.	.	.	16cc/	.	16ff\	.	.	.	.	.	.	.	.	.	.	.	.	.	.	.	.	.	.	.	.	.	.	.	.	.	.	.	.	.	.
.	.	.	16cc/JJ	.	16ff\JJ	.	.	.	.	.	.	.	.	.	.	.	.	.	.	.	.	.	.	.	.	.	.	.	.	.	.	.	.	.	.
*	*	*	*	*	*Xtremolo	*	*	*	*	*	*	*	*	*	*	*	*	*	*	*	*	*	*	*	*	*	*	*	*	*	*	*	*	*	*
=66	=66	=66	=66	=66	=66	=66	=66	=66	=66	=66	=66	=66	=66	=66	=66	=66	=66	=66	=66	=66	=66	=66	=66	=66	=66	=66	=66	=66	=66	=66	=66	=66	=66	=66	=66
4B-\	3	.	16f/LL	.	16dd\LL	.	(4B-\	no-	.	(4B-\	no-	.	(4f\	no-	.	(4dd\	no-	.	(4f\	no-	.	(4dd\	no-	.	4dd/	4b-X\	.	4F/	.	4f\	.	4f/	.	4dd\	.
.	.	.	16f/	.	16b-\	.	.	.	.	.	.	.	.	.	.	.	.	.	.	.	.	.	.	.	.	.	.	.	.	.	.	.	.	.	.
.	.	.	16f/	.	16cc\	.	.	.	.	.	.	.	.	.	.	.	.	.	.	.	.	.	.	.	.	.	.	.	.	.	.	.	.	.	.
.	.	.	16f/JJ	.	16b-\JJ	.	.	.	.	.	.	.	.	.	.	.	.	.	.	.	.	.	.	.	.	.	.	.	.	.	.	.	.	.	.
4F\	5	.	16e-X/LL	.	16a\LL	.	4F\)	.	.	4c\)	.	.	4e-X\)	.	.	4cc\)	.	.	4e-X\)	.	.	4cc\)	.	.	4cc/	4cc\	.	4F/	.	4f\	.	4e-/	.	4cc\	.
.	.	.	16e-X/	.	16b-\	.	.	.	.	.	.	.	.	.	.	.	.	.	.	.	.	.	.	.	.	.	.	.	.	.	.	.	.	.	.
.	.	.	16e-X/	.	16cc\	.	.	.	.	.	.	.	.	.	.	.	.	.	.	.	.	.	.	.	.	.	.	.	.	.	.	.	.	.	.
.	.	.	16e-X/JJ	.	16a\JJ	.	.	.	.	.	.	.	.	.	.	.	.	.	.	.	.	.	.	.	.	.	.	.	.	.	.	.	.	.	.
4BB-/	8	.	16d/LL	.	4b-\	.	4BB-/	-bis	.	4d\	-bis	.	4d\	-bis	.	4b-\	-bis	.	4d\	-bis	.	4b-\	-bis	.	4b-X/	4b-X\	.	4F/	.	4f\	.	4d/	.	4b-\	.
.	.	.	16d/	.	.	.	.	.	.	.	.	.	.	.	.	.	.	.	.	.	.	.	.	.	.	.	.	.	.	.	.	.	.	.	.
.	.	.	16d/	.	.	.	.	.	.	.	.	.	.	.	.	.	.	.	.	.	.	.	.	.	.	.	.	.	.	.	.	.	.	.	.
.	.	.	16d/JJ	.	.	.	.	.	.	.	.	.	.	.	.	.	.	.	.	.	.	.	.	.	.	.	.	.	.	.	.	.	.	.	.
!	!	!	!	!	!	!	!	!	!	!	!	!	!	!	!	!	!	!	!	!	!	!	!	!	!	!	!	!	!	!	!	!	!	!LO:LB:g=original	!
=67	=67	=67	=67	=67	=67	=67	=67	=67	=67	=67	=67	=67	=67	=67	=67	=67	=67	=67	=67	=67	=67	=67	=67	=67	=67	=67	=67	=67	=67	=67	=67	=67	=67	=67	=67
*	*	*	*	*	*	*	*	*	*	*	*	*	*	*	*	*	*	*	*	*	*	*	*	*	*	*	*	*2\right	*	*	*	*	*	*	*
!	!	!	!	!	!LO:TX:t=P:problem=mixed beam	!	!	!	!	!	!	!	!	!	!	!	!	!	!	!	!	!	!	!	!	!	!	!	!	!	!	!	!	!	!
4G\	8 n	.	16bn\LL	.	16g/LL	.	4G\	o-	.	4G/	o-	.	4bn\	o-	.	4gg\	o-	.	4bn\	o-	.	4gg\	o-	.	4g/	4g\	.	2g\	.	2g\	.	4bX\	.	2.gg\	.
.	.	.	16bn\	.	16gg\	.	.	.	.	.	.	.	.	.	.	.	.	.	.	.	.	.	.	.	.	.	.	.	.	.	.	.	.	.	.
.	.	.	16bn\	.	16gg\	.	.	.	.	.	.	.	.	.	.	.	.	.	.	.	.	.	.	.	.	.	.	.	.	.	.	.	.	.	.
.	.	.	16bn\JJ	.	16gg\JJ	.	.	.	.	.	.	.	.	.	.	.	.	.	.	.	.	.	.	.	.	.	.	.	.	.	.	.	.	.	.
*	*	*	*	*	*tremolo	*	*	*	*	*	*	*	*	*	*	*	*	*	*	*	*	*	*	*	*	*	*	*	*	*	*	*	*	*	*
4A\	3	.	16cc\LL	.	16gg\LL	.	4A\	-ra	.	4G/	-ra	.	4cc\	-ra	.	4gg\	-ra	.	4cc\	-ra	.	4gg\	-ra	.	4r	4ryy	.	.	.	.	.	4cc\	.	.	.
.	.	.	16cc\	.	16gg\	.	.	.	.	.	.	.	.	.	.	.	.	.	.	.	.	.	.	.	.	.	.	.	.	.	.	.	.	.	.
.	.	.	16cc\	.	16gg\	.	.	.	.	.	.	.	.	.	.	.	.	.	.	.	.	.	.	.	.	.	.	.	.	.	.	.	.	.	.
.	.	.	16cc\JJ	.	16gg\	.	.	.	.	.	.	.	.	.	.	.	.	.	.	.	.	.	.	.	.	.	.	.	.	.	.	.	.	.	.
4Bn\	3	.	16dd\LL	.	16gg\	.	4Bn\	pro	.	4G/	pro	.	4dd\	pro	.	4gg\	pro	.	4dd\	pro	.	4gg\	pro	.	4r	4ryy	.	4r	.	4r	.	4dd\	.	.	.
.	.	.	16dd\	.	16gg\	.	.	.	.	.	.	.	.	.	.	.	.	.	.	.	.	.	.	.	.	.	.	.	.	.	.	.	.	.	.
.	.	.	16dd\	.	16gg\	.	.	.	.	.	.	.	.	.	.	.	.	.	.	.	.	.	.	.	.	.	.	.	.	.	.	.	.	.	.
.	.	.	16dd\JJ	.	16gg\JJ	.	.	.	.	.	.	.	.	.	.	.	.	.	.	.	.	.	.	.	.	.	.	.	.	.	.	.	.	.	.
*	*	*	*	*	*Xtremolo	*	*	*	*	*	*	*	*	*	*	*	*	*	*	*	*	*	*	*	*	*	*	*	*	*	*	*	*	*	*
!	!	!	!	!	!LO:LB:g=original	!	!	!	!	!	!	!	!	!	!	!LO:LB:g=original	!	!	!	!	!	!	!	!	!	!	!	!	!	!	!	!	!	!	!
=68	=68	=68	=68	=68	=68	=68	=68	=68	=68	=68	=68	=68	=68	=68	=68	=68	=68	=68	=68	=68	=68	=68	=68	=68	=68	=68	=68	=68	=68	=68	=68	=68	=68	=68	=68
4c\	3	.	16g/LL	.	16ee\LL	.	(4c\	no-	.	(4c\	no-	.	(4g\	no-	.	(4ee\	no-	.	(4g\	no-	.	(4ee\	no-	.	4ee/	4cc\	.	4c/	.	4g\	.	4g/	.	4ee\	.
.	.	.	16g/	.	16cc\	.	.	.	.	.	.	.	.	.	.	.	.	.	.	.	.	.	.	.	.	.	.	.	.	.	.	.	.	.	.
.	.	.	16g/	.	16dd\	.	.	.	.	.	.	.	.	.	.	.	.	.	.	.	.	.	.	.	.	.	.	.	.	.	.	.	.	.	.
.	.	.	16g/JJ	.	16cc\JJ	.	.	.	.	.	.	.	.	.	.	.	.	.	.	.	.	.	.	.	.	.	.	.	.	.	.	.	.	.	.
4G\	5	.	16f/LL	.	16bn\LL	.	4G\)	.	.	4d\)	.	.	4f\)	.	.	4dd\)	.	.	4f\)	.	.	4dd\)	.	.	4dd/	4g\	.	4c/	.	4g\	.	4f/	.	4dd\	.
.	.	.	16f/	.	16cc\	.	.	.	.	.	.	.	.	.	.	.	.	.	.	.	.	.	.	.	.	.	.	.	.	.	.	.	.	.	.
.	.	.	16f/	.	16dd\	.	.	.	.	.	.	.	.	.	.	.	.	.	.	.	.	.	.	.	.	.	.	.	.	.	.	.	.	.	.
.	.	.	16f/JJ	.	16b\JJ	.	.	.	.	.	.	.	.	.	.	.	.	.	.	.	.	.	.	.	.	.	.	.	.	.	.	.	.	.	.
4C/	8	.	16e/LL	.	4cc\	.	4C/	-bis	.	4e\	-bis	.	4e\	-bis	.	4cc\	-bis	.	4e\	-bis	.	4cc\	-bis	.	4cc/	4e\	.	4c/	.	4g\	.	4enX/	.	4cc\	.
.	.	.	16e/	.	.	.	.	.	.	.	.	.	.	.	.	.	.	.	.	.	.	.	.	.	.	.	.	.	.	.	.	.	.	.	.
.	.	.	16e/	.	.	.	.	.	.	.	.	.	.	.	.	.	.	.	.	.	.	.	.	.	.	.	.	.	.	.	.	.	.	.	.
.	.	.	16e/JJ	.	.	.	.	.	.	.	.	.	.	.	.	.	.	.	.	.	.	.	.	.	.	.	.	.	.	.	.	.	.	.	.
!	!	!	!LO:LB:g=original	!	!	!	!	!	!	!	!	!	!	!	!	!	!	!	!	!	!	!LO:LB:g=original	!	!	!	!	!	!LO:LB:g=original	!	!	!	!	!	!	!
=69	=69	=69	=69	=69	=69	=69	=69	=69	=69	=69	=69	=69	=69	=69	=69	=69	=69	=69	=69	=69	=69	=69	=69	=69	=69	=69	=69	=69	=69	=69	=69	=69	=69	=69	=69
!	!	!	!	!	!LO:TX:t=P:problem=mixed beam	!	!	!	!	!	!	!	!	!	!	!	!	!	!	!	!	!	!	!	!	!	!	!	!	!	!	!	!	!	!
4A\	8	.	16cc#X\LL	.	16a/LL	.	4A\	o-	.	4A\	o-	.	4cc#X\	o-	.	4aa\	o-	.	4cc#X\	o-	.	4aa\	o-	.	4ee/	4e\	.	2A/	.	2a\	.	4cc#X\	.	2.aa\	.
.	.	.	16cc#X\	.	16aa\	.	.	.	.	.	.	.	.	.	.	.	.	.	.	.	.	.	.	.	.	.	.	.	.	.	.	.	.	.	.
.	.	.	16cc#X\	.	16aa\	.	.	.	.	.	.	.	.	.	.	.	.	.	.	.	.	.	.	.	.	.	.	.	.	.	.	.	.	.	.
.	.	.	16cc#X\JJ	.	16aa\JJ	.	.	.	.	.	.	.	.	.	.	.	.	.	.	.	.	.	.	.	.	.	.	.	.	.	.	.	.	.	.
*	*	*	*	*	*tremolo	*	*	*	*	*	*	*	*	*	*	*	*	*	*	*	*	*	*	*	*	*	*	*	*	*	*	*	*	*	*
4B-\	3	.	16dd\LL	.	16aa\LL	.	4B-\	-ra	.	4A\	-ra	.	4dd\	-ra	.	4aa\	-ra	.	4dd\	-ra	.	4aa\	-ra	.	4r	4ryy	.	.	.	.	.	4dd\	.	.	.
.	.	.	16dd\	.	16aa\	.	.	.	.	.	.	.	.	.	.	.	.	.	.	.	.	.	.	.	.	.	.	.	.	.	.	.	.	.	.
.	.	.	16dd\	.	16aa\	.	.	.	.	.	.	.	.	.	.	.	.	.	.	.	.	.	.	.	.	.	.	.	.	.	.	.	.	.	.
.	.	.	16dd\JJ	.	16aa\	.	.	.	.	.	.	.	.	.	.	.	.	.	.	.	.	.	.	.	.	.	.	.	.	.	.	.	.	.	.
4c#X\	3	.	16een\LL	.	16aa\	.	4c#X\	pro	.	4A\	pro	.	4ee\	pro	.	4aa\	pro	.	4ee\	pro	.	4aa\	pro	.	4r	4ryy	.	4r	.	4r	.	4eenX\	.	.	.
.	.	.	16een\	.	16aa\	.	.	.	.	.	.	.	.	.	.	.	.	.	.	.	.	.	.	.	.	.	.	.	.	.	.	.	.	.	.
.	.	.	16een\	.	16aa\	.	.	.	.	.	.	.	.	.	.	.	.	.	.	.	.	.	.	.	.	.	.	.	.	.	.	.	.	.	.
.	.	.	16een\JJ	.	16aa\JJ	.	.	.	.	.	.	.	.	.	.	.	.	.	.	.	.	.	.	.	.	.	.	.	.	.	.	.	.	.	.
*	*	*	*	*	*Xtremolo	*	*	*	*	*	*	*	*	*	*	*	*	*	*	*	*	*	*	*	*	*	*	*	*	*	*	*	*	*	*
!	!	!	!	!	!	!	!LO:LB:g=original	!	!	!	!	!	!	!	!	!	!	!	!	!	!	!	!	!	!	!	!	!	!	!	!	!	!	!	!
=70	=70	=70	=70	=70	=70	=70	=70	=70	=70	=70	=70	=70	=70	=70	=70	=70	=70	=70	=70	=70	=70	=70	=70	=70	=70	=70	=70	=70	=70	=70	=70	=70	=70	=70	=70
4d\	3	.	16a/LL	.	16ff\LL	.	(4d\	no-	.	(4d\	no-	.	(4a\	no-	.	(4ff\	no-	.	(4a\	no-	.	(4ff\	no-	.	4ff/	4dd\	.	4A/	.	4a\	.	4a\	.	4ff\	.
.	.	.	16a/	.	16dd\	.	.	.	.	.	.	.	.	.	.	.	.	.	.	.	.	.	.	.	.	.	.	.	.	.	.	.	.	.	.
.	.	.	16a/	.	16ee\	.	.	.	.	.	.	.	.	.	.	.	.	.	.	.	.	.	.	.	.	.	.	.	.	.	.	.	.	.	.
.	.	.	16a/JJ	.	16dd\JJ	.	.	.	.	.	.	.	.	.	.	.	.	.	.	.	.	.	.	.	.	.	.	.	.	.	.	.	.	.	.
4A\	5	.	16g/LL	.	16cc#X\LL	.	4A\)	.	.	4e\)	.	.	4g\)	.	.	4ee\)	.	.	4g\)	.	.	4ee\)	.	.	4ee/	4ee\	.	4A/	.	4a\	.	4g\	.	4ee\	.
.	.	.	16g/	.	16dd\	.	.	.	.	.	.	.	.	.	.	.	.	.	.	.	.	.	.	.	.	.	.	.	.	.	.	.	.	.	.
.	.	.	16g/	.	16ee\	.	.	.	.	.	.	.	.	.	.	.	.	.	.	.	.	.	.	.	.	.	.	.	.	.	.	.	.	.	.
.	.	.	16g/JJ	.	16cc#\JJ	.	.	.	.	.	.	.	.	.	.	.	.	.	.	.	.	.	.	.	.	.	.	.	.	.	.	.	.	.	.
*	*	*	*Xtremolo	*	*	*	*	*	*	*	*	*	*	*	*	*	*	*	*	*	*	*	*	*	*	*	*	*	*	*	*	*	*	*	*
4D\	8	.	8f/L	.	8dd\L	.	4D\	-bis	.	4f\	-bis	.	4f\	-bis	.	4dd\	-bis	.	4f\	-bis	.	4dd\	-bis	.	4dd/	4dd\	.	4A/	.	4a\	.	4f/	.	4dd\	.
.	.	.	8f/J	.	8dd\J	.	.	.	.	.	.	.	.	.	.	.	.	.	.	.	.	.	.	.	.	.	.	.	.	.	.	.	.	.	.
!	!	!	!	!	!	!	!	!	!	!LO:LB:g=original	!	!	!LO:LB:g=original	!	!	!	!	!	!LO:LB:g=original	!	!	!	!	!	!LO:LB:g=original	!	!	!	!	!	!	!	!	!	!
=71	=71	=71	=71	=71	=71	=71	=71	=71	=71	=71	=71	=71	=71	=71	=71	=71	=71	=71	=71	=71	=71	=71	=71	=71	=71	=71	=71	=71	=71	=71	=71	=71	=71	=71	=71
*	*	*	*tremolo	*	*tremolo	*	*	*	*	*	*	*	*	*	*	*	*	*	*	*	*	*	*	*	*	*	*	*	*	*	*	*	*	*	*
!	!	!	!	!	!	!	!	!	!	!	!	!	!	!	!	!	!	!	!	!	!	!	!	!	!	!	!	!LO:TX:a:t=1	!	!LO:TX:a:t=1	!	!	!	!	!
4G\	6_ 3_	.	16g/LL	.	16ee\LL	.	4G\	o-	.	4B-\	o-	.	4g\	o-	.	4ee\	o-	.	4g\	o-	.	4ee\	o-	.	2ee/	2ee\	.	2.r	.	2.r	.	2g/	.	2ee\	.
.	.	.	16g/	.	16ee\	.	.	.	.	.	.	.	.	.	.	.	.	.	.	.	.	.	.	.	.	.	.	.	.	.	.	.	.	.	.
.	.	.	16g/	.	16ee\	.	.	.	.	.	.	.	.	.	.	.	.	.	.	.	.	.	.	.	.	.	.	.	.	.	.	.	.	.	.
.	.	.	16g/	.	16ee\	.	.	.	.	.	.	.	.	.	.	.	.	.	.	.	.	.	.	.	.	.	.	.	.	.	.	.	.	.	.
4G\	.	.	16g/	.	16ee\	.	4G\	-ra	.	4B-\	-ra	.	4g\	-ra	.	4ee\	-ra	.	4g\	-ra	.	4ee\	-ra	.	.	.	.	.	.	.	.	.	.	.	.
.	.	.	16g/	.	16ee\	.	.	.	.	.	.	.	.	.	.	.	.	.	.	.	.	.	.	.	.	.	.	.	.	.	.	.	.	.	.
.	.	.	16g/	.	16ee\	.	.	.	.	.	.	.	.	.	.	.	.	.	.	.	.	.	.	.	.	.	.	.	.	.	.	.	.	.	.
.	.	.	16g/JJ	.	16ee\JJ	.	.	.	.	.	.	.	.	.	.	.	.	.	.	.	.	.	.	.	.	.	.	.	.	.	.	.	.	.	.
4G#X\	5	.	16f/LL	.	16dd\LL	.	4G#X\	pro	.	4B-\	pro	.	4f\	pro	.	4dd\	pro	.	4f\	pro	.	4dd\	pro	.	4r	4ryy	.	.	.	.	.	4f/	.	4dd\	.
.	.	.	16f/	.	16dd\	.	.	.	.	.	.	.	.	.	.	.	.	.	.	.	.	.	.	.	.	.	.	.	.	.	.	.	.	.	.
.	.	.	16f/	.	16dd\	.	.	.	.	.	.	.	.	.	.	.	.	.	.	.	.	.	.	.	.	.	.	.	.	.	.	.	.	.	.
.	.	.	16f/JJ	.	16dd\JJ	.	.	.	.	.	.	.	.	.	.	.	.	.	.	.	.	.	.	.	.	.	.	.	.	.	.	.	.	.	.
*	*	*	*Xtremolo	*	*Xtremolo	*	*	*	*	*	*	*	*	*	*	*	*	*	*	*	*	*	*	*	*	*	*	*	*	*	*	*	*	*	*
*	*	*	*	*	*	*	*	*	*	*	*	*	*	*	*	*	*	*	*	*	*	*	*	*	*v	*v	*	*	*	*	*	*	*	*	*
=72	=72	=72	=72	=72	=72	=72	=72	=72	=72	=72	=72	=72	=72	=72	=72	=72	=72	=72	=72	=72	=72	=72	=72	=72	=72	=72	=72	=72	=72	=72	=72	=72	=72	=72
!	!	!	!	!	!	!	!	!	!	!	!	!	!	!	!	!	!	!	!	!	!	!	!	!	!LO:TX:a:t=1	!	!	!	!	!	!	!	!	!
4A\	4	.	4f/	.	4dd\	.	4A\	no-	.	4A\	no-	.	4f\	no-	.	4dd\	no-	.	4f\	no-	.	4dd\	no-	.	2.r	.	4A/	.	4a\	.	4f/	.	4dd\	.
4AA/	#	.	4e/	.	4cc#X\	.	4AA/	-bis	.	4A\	-bis	.	4e\	-bis	.	4cc#X\	-bis	.	4e\	-bis	.	4cc#X\	-bis	.	.	.	4A/	.	4a\	.	4e/	.	4cc#X\	.
!	!	!	!	!	!	!	!	!	!	!	!	!	!	!	!	!LO:TX:b:i:t=Volti Cito	!	!	!	!	!	!	!	!	!	!	!	!	!	!	!	!	!	!
4r	.	.	4r	.	4r	.	4r	.	.	4r	.	.	4r	.	.	4r	.	.	4r	.	.	4r	.	.	.	.	4r	.	4r	.	4r	.	4r	.
!LO:LB:g=original	!	!	!	!	!LO:LB:g=original	!	!	!	!	!	!	!	!	!	!	!LO:PB:g=original	!	!	!	!	!	!	!	!	!	!	!	!	!	!	!	!	!	!
=73	=73	=73	=73	=73	=73	=73	=73	=73	=73	=73	=73	=73	=73	=73	=73	=73	=73	=73	=73	=73	=73	=73	=73	=73	=73	=73	=73	=73	=73	=73	=73	=73	=73	=73
*	*	*	*	*	*	*	*	*	*	*	*	*	*	*	*	*	*	*	*	*	*	*	*	*	*^	*	*	*	*	*	*	*	*	*
4AA/	#_	.	4e/ 4A/	.	16ee\LL|	.	4r	.	.	4r	.	.	4r	.	.	4r	.	.	4r	.	.	4r	.	.	4ee/	4e\	.	4A/	.	4a\	.	4a\	.	4ee\	.
.	.	.	.	.	(16a\	.	.	.	.	.	.	.	.	.	.	.	.	.	.	.	.	.	.	.	.	.	.	.	.	.	.	.	.	.	.
.	.	.	.	.	16b-\	.	.	.	.	.	.	.	.	.	.	.	.	.	.	.	.	.	.	.	.	.	.	.	.	.	.	.	.	.	.
.	.	.	.	.	16a\JJ)	.	.	.	.	.	.	.	.	.	.	.	.	.	.	.	.	.	.	.	.	.	.	.	.	.	.	.	.	.	.
4r	.	.	4r	.	(16g#X\LL	.	4r	.	.	4r	.	.	4r	.	.	4r	.	.	4r	.	.	4r	.	.	4r	4ryy	.	4r	.	4r	.	4r	.	4r	.
.	.	.	.	.	16a\)	.	.	.	.	.	.	.	.	.	.	.	.	.	.	.	.	.	.	.	.	.	.	.	.	.	.	.	.	.	.
.	.	.	.	.	16cc#X'\	.	.	.	.	.	.	.	.	.	.	.	.	.	.	.	.	.	.	.	.	.	.	.	.	.	.	.	.	.	.
.	.	.	.	.	16ee'\JJ	.	.	.	.	.	.	.	.	.	.	.	.	.	.	.	.	.	.	.	.	.	.	.	.	.	.	.	.	.	.
4A\	.	.	4e/ 4A/	.	8ggn'\L	.	4A\	pro	.	4c#X\	.	.	4g\	pro	.	4ee\	pro	.	4g\	pro	.	4ee\	pro	.	4r	4ryy	.	4A/	.	4a\	.	4a\	.	4gg\	.
.	.	.	.	.	8gg'\J	.	.	.	.	.	.	.	.	.	.	.	.	.	.	.	.	.	.	.	.	.	.	.	.	.	.	.	.	.	.
*	*	*	*	*	*	*	*	*	*	*	*	*	*	*	*	*	*	*	*	*	*	*	*	*	*v	*v	*	*	*	*	*	*	*	*	*
!	!	!	!	!	!	!	!	!	!	!	!	!	!	!	!	!	!	!	!	!	!	!	!	!	!	!	!	!	!	!	!	!LO:LB:g=original	!	!
=74	=74	=74	=74	=74	=74	=74	=74	=74	=74	=74	=74	=74	=74	=74	=74	=74	=74	=74	=74	=74	=74	=74	=74	=74	=74	=74	=74	=74	=74	=74	=74	=74	=74	=74
!	!	!	!	!	!	!	!	!	!	!	!	!	!	!	!	!	!	!	!	!	!	!	!	!	!LO:TX:a:t=1	!	!	!	!	!	!	!	!	!
4d\	3	.	(8a/L	.	(8ff\L	.	(4d\	no-	.	(4d\	.	.	(4a\	no-	.	(4ff\	no-	.	(4a\	no-	.	(4ff\	no-	.	2.r	.	4A/	.	4a\	.	4a/	.	4ff\	.
.	.	.	8f/)	.	8dd\)	.	.	.	.	.	.	.	.	.	.	.	.	.	.	.	.	.	.	.	.	.	.	.	.	.	.	.	.	.
4A\	5	.	(8e/	.	(8cc#X\	.	4A\)	.	.	4e\)	.	.	4g\)	.	.	4ee\)	.	.	4g\)	.	.	4ee\)	.	.	.	.	4A/	.	4a\	.	4g/	.	4ee\	.
.	.	.	8g/J)	.	8ee\J)	.	.	.	.	.	.	.	.	.	.	.	.	.	.	.	.	.	.	.	.	.	.	.	.	.	.	.	.	.
4D\	8	.	4f/	.	4dd\	.	4D\	-bis	.	4f\	.	.	4f\	-bis	.	4dd\	-bis	.	4f\	-bis	.	4dd\	-bis	.	.	.	4A/	.	4a\	.	4f/	.	4dd\	.
!	!	!	!	!	!	!	!	!	!	!	!	!	!	!	!	!	!	!	!	!	!	!LO:LB:g=original	!	!	!	!	!	!	!LO:LB:g=original	!	!	!	!	!
=75	=75	=75	=75	=75	=75	=75	=75	=75	=75	=75	=75	=75	=75	=75	=75	=75	=75	=75	=75	=75	=75	=75	=75	=75	=75	=75	=75	=75	=75	=75	=75	=75	=75	=75
*	*	*	*	*	*	*	*	*	*	*	*	*	*	*	*	*	*	*	*	*	*	*	*	*	*^	*	*	*	*	*	*	*	*	*
!	!	!	!	!	!	!	!	!	!	!	!	!	!	!	!	!	!	!	!	!	!	!	!	!	!	!	!	!	!	!LO:TX:t=P:problem=uszkodzony papier	!	!	!	!	!
4AA/	#	.	4e/ 4A/	.	16ee\LL|	.	4r	.	.	4r	.	.	4r	.	.	4r	.	.	4r	.	.	4r	.	.	4ee/	4e\	.	4A/	.	2ryy	.	4a\	.	4ee\	.
.	.	.	.	.	(16a\	.	.	.	.	.	.	.	.	.	.	.	.	.	.	.	.	.	.	.	.	.	.	.	.	.	.	.	.	.	.
.	.	.	.	.	16b-\	.	.	.	.	.	.	.	.	.	.	.	.	.	.	.	.	.	.	.	.	.	.	.	.	.	.	.	.	.	.
.	.	.	.	.	16a\JJ)	.	.	.	.	.	.	.	.	.	.	.	.	.	.	.	.	.	.	.	.	.	.	.	.	.	.	.	.	.	.
4r	.	.	4r	.	(16g#X\LL	.	4r	.	.	4r	.	.	4r	.	.	4r	.	.	4r	.	.	4r	.	.	4r	4ryy	.	4r	.	.	.	4r	.	4r	.
.	.	.	.	.	16a\)	.	.	.	.	.	.	.	.	.	.	.	.	.	.	.	.	.	.	.	.	.	.	.	.	.	.	.	.	.	.
.	.	.	.	.	16cc#X'\	.	.	.	.	.	.	.	.	.	.	.	.	.	.	.	.	.	.	.	.	.	.	.	.	.	.	.	.	.	.
.	.	.	.	.	16ee'\JJ	.	.	.	.	.	.	.	.	.	.	.	.	.	.	.	.	.	.	.	.	.	.	.	.	.	.	.	.	.	.
4A\	.	.	4e/ 4A/	.	8ggn'\L	.	4A\	pro	.	4c#X\	pro	.	4g\	pro	.	4ee\	pro	.	4g\	pro	.	4ee\	pro	.	4r	4ryy	.	4A/	.	4a\	.	4a\	.	4gg\	.
.	.	.	.	.	8gg'\J	.	.	.	.	.	.	.	.	.	.	.	.	.	.	.	.	.	.	.	.	.	.	.	.	.	.	.	.	.	.
*	*	*	*	*	*	*	*	*	*	*	*	*	*	*	*	*	*	*	*	*	*	*	*	*	*v	*v	*	*	*	*	*	*	*	*	*
!	!	!	!	!	!	!	!LO:LB:g=original	!	!	!	!	!	!	!	!	!	!	!	!	!	!	!	!	!	!	!	!	!	!	!	!	!	!	!
=76	=76	=76	=76	=76	=76	=76	=76	=76	=76	=76	=76	=76	=76	=76	=76	=76	=76	=76	=76	=76	=76	=76	=76	=76	=76	=76	=76	=76	=76	=76	=76	=76	=76	=76
!	!	!	!	!	!	!	!	!	!	!	!	!	!	!	!	!	!	!	!	!	!	!	!	!	!LO:TX:a:t=1	!	!	!	!	!	!	!	!	!
4d\	3	.	(8a/L	.	(8ff\L	.	(4d\	no-	.	(4d\	no-	.	(4a\	no-	.	(4ff\	no-	.	(4a\	no-	.	(4ff\	no-	.	2.r	.	4A/	.	4a\	.	4a\	.	4ff\	.
.	.	.	8f/)	.	8dd\)	.	.	.	.	.	.	.	.	.	.	.	.	.	.	.	.	.	.	.	.	.	.	.	.	.	.	.	.	.
4A\	5	.	(8e/	.	(8cc#X\	.	4A\)	.	.	4e\)	.	.	4g\)	.	.	4ee\)	.	.	4g\)	.	.	4ee\)	.	.	.	.	4A/	.	4a\	.	4g/	.	4ee\	.
.	.	.	8g/J)	.	8ee\J)	.	.	.	.	.	.	.	.	.	.	.	.	.	.	.	.	.	.	.	.	.	.	.	.	.	.	.	.	.
4D\	8	.	4f/	.	4dd\	.	4D\	-bis	.	4f\	-bis	.	4f\	-bis	.	4dd\	-bis	.	4f\	-bis	.	4dd\	-bis	.	.	.	4A/	.	4a\	.	4f/	.	4dd\	.
!	!	!	!LO:LB:g=original	!	!	!	!	!	!	!	!	!	!	!	!	!	!	!	!	!	!	!	!	!	!	!	!	!	!	!	!	!	!	!
=77	=77	=77	=77	=77	=77	=77	=77	=77	=77	=77	=77	=77	=77	=77	=77	=77	=77	=77	=77	=77	=77	=77	=77	=77	=77	=77	=77	=77	=77	=77	=77	=77	=77	=77
*	*	*	*	*	*	*	*	*	*	*	*	*	*	*	*	*	*	*	*	*	*	*	*	*	*^	*	*	*	*	*	*	*	*	*
*	*	*	*tremolo	*	*tremolo	*	*	*	*	*	*	*	*	*	*	*	*	*	*	*	*	*	*	*	*	*	*	*	*	*	*	*	*	*	*
4G\	6 3	.	16g/LL	.	16ee\LL	.	4G\	pro	.	4e\	pro	.	4g\	pro	.	4ee\	pro	.	4g\	pro	.	4ee\	pro	.	4r	4ryy	.	4r	.	4r	.	4g/	.	4ee\	.
.	.	.	16g/	.	16ee\	.	.	.	.	.	.	.	.	.	.	.	.	.	.	.	.	.	.	.	.	.	.	.	.	.	.	.	.	.	.
.	.	.	16g/	.	16ee\	.	.	.	.	.	.	.	.	.	.	.	.	.	.	.	.	.	.	.	.	.	.	.	.	.	.	.	.	.	.
.	.	.	16g/JJ	.	16ee\JJ	.	.	.	.	.	.	.	.	.	.	.	.	.	.	.	.	.	.	.	.	.	.	.	.	.	.	.	.	.	.
4A\	4	.	16f/LL	.	16dd\LL	.	(4A\	no-	.	(4f\	no-	.	2a\	no-	.	(4dd\	no-	.	2a\	no-	.	(4dd\	no-	.	4r	4ryy	.	4A/	.	4a\	.	4f/	.	4dd\	.
.	.	.	16f/	.	16dd\	.	.	.	.	.	.	.	.	.	.	.	.	.	.	.	.	.	.	.	.	.	.	.	.	.	.	.	.	.	.
.	.	.	16f/	.	16dd\	.	.	.	.	.	.	.	.	.	.	.	.	.	.	.	.	.	.	.	.	.	.	.	.	.	.	.	.	.	.
.	.	.	16f/JJ	.	16dd\JJ	.	.	.	.	.	.	.	.	.	.	.	.	.	.	.	.	.	.	.	.	.	.	.	.	.	.	.	.	.	.
4AA/	#	.	16e/LL	.	16cc#X\LL	.	4AA/)	.	.	4e\)	.	.	.	.	.	4cc#X\)	.	.	.	.	.	4cc#X\)	.	.	4ee/	4ee\	.	4A/	.	4a\	.	4e/	.	4cc#X\	.
.	.	.	16e/	.	16cc#X\	.	.	.	.	.	.	.	.	.	.	.	.	.	.	.	.	.	.	.	.	.	.	.	.	.	.	.	.	.	.
.	.	.	16e/	.	16cc#X\	.	.	.	.	.	.	.	.	.	.	.	.	.	.	.	.	.	.	.	.	.	.	.	.	.	.	.	.	.	.
.	.	.	16e/JJ	.	16cc#X\JJ	.	.	.	.	.	.	.	.	.	.	.	.	.	.	.	.	.	.	.	.	.	.	.	.	.	.	.	.	.	.
*	*	*	*	*	*Xtremolo	*	*	*	*	*	*	*	*	*	*	*	*	*	*	*	*	*	*	*	*	*	*	*	*	*	*	*	*	*	*
*	*	*	*Xtremolo	*	*	*	*	*	*	*	*	*	*	*	*	*	*	*	*	*	*	*	*	*	*	*	*	*	*	*	*	*	*	*	*
*	*	*	*	*	*	*	*	*	*	*	*	*	*	*	*	*	*	*	*	*	*	*	*	*	*v	*v	*	*	*	*	*	*	*	*	*
!	!	!	!	!	!LO:LB:g=original	!	!	!	!	!LO:LB:g=original	!	!	!	!	!	!	!	!	!	!	!	!	!	!	!	!	!	!	!	!	!	!	!	!
=78	=78	=78	=78	=78	=78	=78	=78	=78	=78	=78	=78	=78	=78	=78	=78	=78	=78	=78	=78	=78	=78	=78	=78	=78	=78	=78	=78	=78	=78	=78	=78	=78	=78	=78
8D\L|	.	.	4f/	.	4dd\	.	4D\	-bis	.	4f\	-bis	.	4a\	-bis	.	4dd\	-bis	.	4a\	-bis	.	4dd\	-bis	.	4dd\	.	4A/	.	4a\	.	4f/	.	4dd\	.
8d\|	.	.	.	.	.	.	.	.	.	.	.	.	.	.	.	.	.	.	.	.	.	.	.	.	.	.	.	.	.	.	.	.	.	.
8cn\|	.	.	4r	.	4r	.	4r	.	.	4r	.	.	4r	.	.	4r	.	.	4r	.	.	4r	.	.	4r	.	4r	.	4r	.	4r	.	4r	.
8B-X\|	.	.	.	.	.	.	.	.	.	.	.	.	.	.	.	.	.	.	.	.	.	.	.	.	.	.	.	.	.	.	.	.	.	.
8A\|	.	.	4r	ff	4r	ff	4r	.	.	4r	.	ff	4r	.	.	4r	.	.	4r	.	.	4r	.	.	4r	.	4r	.	4r	.	4r	.	4r	.
8G\J|	.	ff	.	.	.	.	.	.	.	.	.	.	.	.	.	.	.	.	.	.	.	.	.	.	.	.	.	.	.	.	.	.	.	.
!	!	!	!	!	!	!	!	!	!	!	!	!	!LO:LB:g=original	!	!	!	!	!	!LO:LB:g=original	!	!	!	!	!	!	!	!LO:LB:g=original	!	!	!	!	!	!LO:LB:g=original	!
=79	=79	=79	=79	=79	=79	=79	=79	=79	=79	=79	=79	=79	=79	=79	=79	=79	=79	=79	=79	=79	=79	=79	=79	=79	=79	=79	=79	=79	=79	=79	=79	=79	=79	=79
!LO:TX:b:i:t=uniſono	!	!	!	!	!	!	!	!	!	!	!	!	!	!	!	!	!	!	!	!	!	!	!	!	!	!	!	!	!	!	!	!	!	!
!	!	!	!	!	!	!	!	!	!	!	!	!	!	!	!	!	!	!	!	!	!	!	!	!	!LO:TX:a:t=2	!	!LO:TX:t=P:problem=uszkodzony papier	!	!LO:TX:t=P:problem=brak taktu	!	!	!	!	!
8F\L|	.	.	8f'/L	.	8ff\	.	4r	.	.	4r	.	.	4r	.	.	4r	.	.	4r	.	.	4r	.	.	1.r	.	2ryy	.	2.ryy	.	4r	.	4r	.
8E\|	.	.	8e'/	.	4ff\	.	.	.	.	.	.	.	.	.	.	.	.	.	.	.	.	.	.	.	.	.	.	.	.	.	.	.	.	.
!	!	!	!	!	!	!	!	!	!	!	!	!	!	!	!	!	!	!LO:DY:b:t=ff	!	!	!	!	!	!LO:DY:b	!	!	!	!	!	!	!	!	!	!
8F\|	.	.	8f'/	.	.	.	4r	.	ff	4r	.	ff	4r	.	ff	4r	.	ff	4r	.	ff	4r	.	ff	.	.	.	.	.	.	4r	.	4r	.
8G\|	.	.	8g'/	.	8ff\	.	.	.	.	.	.	.	.	.	.	.	.	.	.	.	.	.	.	.	.	.	.	.	.	.	.	.	.	.
8A\|	.	.	8a'/	.	(16gg\LL	.	4A\	Re-	.	4A\	Re-	.	4a\	Re-	.	4a\	Re-	.	4a\	Re-	.	4a\	Re-	.	.	.	4A/	.	.	.	4a\	.	4aa\	.
.	.	.	.	.	16ff\	.	.	.	.	.	.	.	.	.	.	.	.	.	.	.	.	.	.	.	.	.	.	.	.	.	.	.	.	.
8G\J|	.	.	8g'/J	.	16ee\	.	.	.	.	.	.	.	.	.	.	.	.	.	.	.	.	.	.	.	.	.	.	.	.	.	.	.	.	.
.	.	.	.	.	16ff\JJ)	.	.	.	.	.	.	.	.	.	.	.	.	.	.	.	.	.	.	.	.	.	.	.	.	.	.	.	.	.
=80	=80	=80	=80	=80	=80	=80	=80	=80	=80	=80	=80	=80	=80	=80	=80	=80	=80	=80	=80	=80	=80	=80	=80	=80	=80	=80	=80	=80	=80	=80	=80	=80	=80	=80
!	!	!	!	!	!	!	!	!	!	!	!	!	!	!	!	!	!	!	!	!	!	!	!	!	!	!	!	!	!	!	!LO:TX:t=P:problem=brak taktu	!	!	!
8F\L|	.	.	8f'/L	.	8aa\	.	2A\	-gi-	.	2A\	-gi-	.	2a\	-gi-	.	2a\	-gi-	.	2a\	-gi-	.	2a\	-gi-	.	.	.	2A/	.	4r	.	2.ryy	.	2aa\	.
8E\|	.	.	8e'/	.	4aa\	.	.	.	.	.	.	.	.	.	.	.	.	.	.	.	.	.	.	.	.	.	.	.	.	.	.	.	.	.
8F\|	.	.	8f'/	.	.	.	.	.	.	.	.	.	.	.	.	.	.	.	.	.	.	.	.	.	.	.	.	.	4r	.	.	.	.	.
8G\|	.	.	8g'/	.	8aa\	.	.	.	.	.	.	.	.	.	.	.	.	.	.	.	.	.	.	.	.	.	.	.	.	.	.	.	.	.
8A\|	.	.	8a'/	.	(16bb-\LL	.	4A\	-na	.	4A\	-na	.	4a\	-na	.	4a\	-na	.	4a\	-na	.	4a\	-na	.	.	.	4A/	.	4a\	.	.	.	4aa\	.
.	.	.	.	.	16aa\	.	.	.	.	.	.	.	.	.	.	.	.	.	.	.	.	.	.	.	.	.	.	.	.	.	.	.	.	.
8F\J|	.	.	8f'/J	.	16gg\	.	.	.	.	.	.	.	.	.	.	.	.	.	.	.	.	.	.	.	.	.	.	.	.	.	.	.	.	.
.	.	.	.	.	16aa\JJ)	.	.	.	.	.	.	.	.	.	.	.	.	.	.	.	.	.	.	.	.	.	.	.	.	.	.	.	.	.
!	!	!	!	!	!	!	!	!	!	!	!	!	!	!	!	!LO:LB:g=original	!	!	!	!	!	!LO:LB:g=original	!	!	!	!	!	!	!	!	!	!	!	!
=81	=81	=81	=81	=81	=81	=81	=81	=81	=81	=81	=81	=81	=81	=81	=81	=81	=81	=81	=81	=81	=81	=81	=81	=81	=81	=81	=81	=81	=81	=81	=81	=81	=81	=81
*	*	*	*	*	*	*	*	*	*	*	*	*	*	*	*	*	*	*	*	*	*	*	*	*	*^	*	*	*	*	*	*	*	*	*
8E\L|	.	.	8e'/L	.	8ccc\	.	4c\	San-	.	4c\	San-	.	4cc\	San-	.	4cc\	San-	.	4cc\	San-	.	4cc\	San-	.	2cc/	2c\	.	2c/	.	2cc\	.	2cc\	.	2ccc\	.
8D\|	.	.	8d'/	.	4ccc\	.	.	.	.	.	.	.	.	.	.	.	.	.	.	.	.	.	.	.	.	.	.	.	.	.	.	.	.	.	.
8E\|	.	.	8e'/	.	.	.	4c\	-cto-	.	4c\	-cto-	.	4cc\	-cto-	.	4cc\	-cto-	.	4cc\	-cto-	.	4cc\	-cto-	.	.	.	.	.	.	.	.	.	.	.	.
8C\|	.	.	8c'/	.	8ccc\	.	.	.	.	.	.	.	.	.	.	.	.	.	.	.	.	.	.	.	.	.	.	.	.	.	.	.	.	.	.
8D\|	.	.	8d'/	.	(16ddd\LL	.	4c\	-rum	.	4c\	-rum	.	4cc\	-rum	.	4cc\	-rum	.	4cc\	-rum	.	4cc\	-rum	.	4cc/	4c\	.	4c/	.	4cc\	.	4cc\	.	4ccc\	.
.	.	.	.	.	16ccc\	.	.	.	.	.	.	.	.	.	.	.	.	.	.	.	.	.	.	.	.	.	.	.	.	.	.	.	.	.	.
8E\J|	.	.	8e'/J	.	16bbn\	.	.	.	.	.	.	.	.	.	.	.	.	.	.	.	.	.	.	.	.	.	.	.	.	.	.	.	.	.	.
.	.	.	.	.	16ccc\JJ)	.	.	.	.	.	.	.	.	.	.	.	.	.	.	.	.	.	.	.	.	.	.	.	.	.	.	.	.	.	.
*	*	*	*	*	*	*	*	*	*	*	*	*	*	*	*	*	*	*	*	*	*	*	*	*	*v	*v	*	*	*	*	*	*	*	*	*
!	!	!	!	!	!	!	!LO:LB:g=original	!	!	!	!	!	!	!	!	!	!	!	!	!	!	!	!	!	!	!	!	!	!	!	!	!	!	!
=82	=82	=82	=82	=82	=82	=82	=82	=82	=82	=82	=82	=82	=82	=82	=82	=82	=82	=82	=82	=82	=82	=82	=82	=82	=82	=82	=82	=82	=82	=82	=82	=82	=82	=82
!LO:TX:t=P:problem=takty 82-3 - repetycja	!	!	!	!	!	!	!	!	!	!	!	!	!	!	!	!	!	!	!	!	!	!	!	!	!LO:TX:a:t=1	!	!	!	!	!	!	!	!	!
8F\Lyy|	.	.	8f'/L	.	16aa\LL	.	8A\	o-	.	8A\	o-	.	8a\	o-	.	8a\	o-	.	8a\	o-	.	8a\	o-	.	2.r	.	4A/	.	4a\	.	4a\	.	4aa\	.
.	.	.	.	.	16bb-X\	.	.	.	.	.	.	.	.	.	.	.	.	.	.	.	.	.	.	.	.	.	.	.	.	.	.	.	.	.
8E\yy|	.	.	8e'/	.	16gg\	.	8A\	-mni-	.	8A\	-mni-	.	8a\	-mni-	.	8a\	-mni-	.	8a\	-mni-	.	8a\	-mni-	.	.	.	.	.	.	.	.	.	.	.
.	.	.	.	.	16aa\JJ	.	.	.	.	.	.	.	.	.	.	.	.	.	.	.	.	.	.	.	.	.	.	.	.	.	.	.	.	.
8F\yy|	.	.	8f'/	.	16ff\LL	.	4F\	-um	.	4F/	-um	.	4f\	-um	.	4f/	-um	.	4f\	-um	.	4f/	-um	.	.	.	4F/	.	4f\	.	4f/	.	4ff\	.
.	.	.	.	.	16cc\	.	.	.	.	.	.	.	.	.	.	.	.	.	.	.	.	.	.	.	.	.	.	.	.	.	.	.	.	.
8G\yy|	.	.	8g'/	.	16dd\	.	.	.	.	.	.	.	.	.	.	.	.	.	.	.	.	.	.	.	.	.	.	.	.	.	.	.	.	.
.	.	.	.	.	16ee\JJ	.	.	.	.	.	.	.	.	.	.	.	.	.	.	.	.	.	.	.	.	.	.	.	.	.	.	.	.	.
!	!	!	!	!	!LO:LB:g=original	!	!	!	!	!	!	!	!	!	!	!	!	!	!	!	!	!	!	!	!	!	!	!	!	!	!	!	!	!
8A\yy|	.	.	8a'/	.	16ff\LL	.	4A\	o-	.	4A\	o-	.	4a\	o-	.	4a\	o-	.	4a\	o-	.	4a\	o-	.	.	.	4A/	.	4a\	.	4a\	.	4aa\	.
.	.	.	.	.	16gg\	.	.	.	.	.	.	.	.	.	.	.	.	.	.	.	.	.	.	.	.	.	.	.	.	.	.	.	.	.
8F\Jyy|	.	.	8f'/J	.	16aa\	.	.	.	.	.	.	.	.	.	.	.	.	.	.	.	.	.	.	.	.	.	.	.	.	.	.	.	.	.
.	.	.	.	.	16bb-\JJ	.	.	.	.	.	.	.	.	.	.	.	.	.	.	.	.	.	.	.	.	.	.	.	.	.	.	.	.	.
=83	=83	=83	=83	=83	=83	=83	=83	=83	=83	=83	=83	=83	=83	=83	=83	=83	=83	=83	=83	=83	=83	=83	=83	=83	=83	=83	=83	=83	=83	=83	=83	=83	=83	=83
*	*	*	*	*	*	*	*	*	*	*	*	*	*	*	*	*	*	*	*	*	*	*	*	*	*^	*	*	*	*	*	*	*	*	*
8E\Lyy|	.	.	8e'/L	.	8ccc\	.	2c\	-ra	.	2c\	-ra	.	2cc\	-ra	.	2cc\	-ra	.	2cc\	-ra	.	2cc\	-ra	.	2cc/	2c\	.	2c/	.	2cc\	.	2cc\	.	2ccc\	.
8D\yy|	.	.	8d'/	.	4ccc\	.	.	.	.	.	.	.	.	.	.	.	.	.	.	.	.	.	.	.	.	.	.	.	.	.	.	.	.	.	.
8E\yy|	.	.	8e'/	.	.	.	.	.	.	.	.	.	.	.	.	.	.	.	.	.	.	.	.	.	.	.	.	.	.	.	.	.	.	.	.
8C\yy|	.	.	8c'/	.	8ccc\	.	.	.	.	.	.	.	.	.	.	.	.	.	.	.	.	.	.	.	.	.	.	.	.	.	.	.	.	.	.
8D\yy|	.	.	8d'/	.	(16ddd\LL	.	4c\	pro	.	4c\	pro	.	4cc\	pro	.	4cc\	pro	.	4cc\	pro	.	4cc\	pro	.	4cc/	4c\	.	4c/	.	4cc\	.	4cc\	.	4ccc\	.
.	.	.	.	.	16ccc\	.	.	.	.	.	.	.	.	.	.	.	.	.	.	.	.	.	.	.	.	.	.	.	.	.	.	.	.	.	.
8E\Jyy|	.	.	8e'/J	.	16bbn\	.	.	.	.	.	.	.	.	.	.	.	.	.	.	.	.	.	.	.	.	.	.	.	.	.	.	.	.	.	.
.	.	.	.	.	16ccc\JJ)	.	.	.	.	.	.	.	.	.	.	.	.	.	.	.	.	.	.	.	.	.	.	.	.	.	.	.	.	.	.
!	!	!	!	!	!	!	!	!	!	!LO:LB:g=original	!	!	!	!	!	!	!	!	!	!	!	!	!	!	!	!	!	!	!	!	!	!	!	!	!
=84	=84	=84	=84	=84	=84	=84	=84	=84	=84	=84	=84	=84	=84	=84	=84	=84	=84	=84	=84	=84	=84	=84	=84	=84	=84	=84	=84	=84	=84	=84	=84	=84	=84	=84	=84
!	!	!	!	!	!	!	!	!	!	!	!	!	!	!	!	!	!	!	!	!	!	!	!	!	!	!	!	!LO:TX:t=P:problem=uszkodzony papier	!	!	!	!	!	!	!
4F\|	3	.	4f/	.	4aa\|	.	4A\	no-	.	4A\	no-	.	4a\	no-	.	4a\	no-	.	4a\	no-	.	4a\	no-	.	4cc/	4c\	.	4A/yy	.	4a\	.	4a\	.	4aa\	.
4FF/|	.	.	4a/ 4f/	.	4ff\|	.	4F\	-bis	.	4F/	-bis	.	4f\	-bis	.	4f/	-bis	.	4f\	-bis	.	4f/	-bis	.	4cc/	4c\	.	4F/yy	.	4f\	.	4f/	.	4ff\	.
!	!	!	!	!	!	!	!LO:TX:b:i:t=Volti Agnus	!	!	!LO:TX:b:i:t=Volti Agnus	!	!	!LO:TX:b:i:t=Volti Agnus	!	!	!	!	!	!LO:TX:b:i:t=Volti Agnus	!	!	!LO:TX:b:i:t=Seque Agnus	!	!	!	!	!	!	!	!	!	!	!	!	!
4r	.	.	4r	.	4r	.	4r	.	.	4r	.	.	4r	.	.	4r	.	.	4r	.	.	4r	.	.	4r	4ryy	.	4r	.	4r	.	4r	.	4r	.
*	*	*	*	*	*	*	*	*	*	*	*	*	*	*	*	*	*	*	*	*	*	*	*	*	*v	*v	*	*	*	*	*	*	*	*	*
==	==	==	==	==	==	==	==	==	==	==	==	==	==	==	==	==	==	==	==	==	==	==	==	==	==	==	==	==	==	==	==	==	==	==
*-	*-	*-	*-	*-	*-	*-	*-	*-	*-	*-	*-	*-	*-	*-	*-	*-	*-	*-	*-	*-	*-	*-	*-	*-	*-	*-	*-	*-	*-	*-	*-	*-	*-	*-
!!!system-decoration: [(s1,s2)][(s3,s4,s5)][(s6,s7)][(s8,s9,s10,s11)][(s12,s13)]s14
!!!ENC: Andrzej Borzym
!!!END: 2020-10-12
!!!RDF**kern: | = vertical stroke
!!!EED: Andrzej Borzym
!!!EEV: 2022-01-16
!!!RDF**kern: | = vertical stroke
!!!RDF**dynam: f = f.
!!!RDF**dynam: ff = ff.
!!!RDF**dynam: p = p.
